; GCODE Generated by cam.openbuilds.com on 2024-02-25 
G21 ; mm-mode
G54; Work Coordinates
G21; mm-mode
G90; Absolute Positioning
M3 S1000; Spindle On

; Operation 0: CNC: Vector (path inside)
; Endmill Diameter: 1.5

G0 Z10; move to z-safe height
G0 F1000 X238.4935 Y302.6982

G0 Z0
G1 F300 Z-2.0000
G1 F700 X238.8956 Y303.1003 Z-2.0000 S1000
G1 F700 X239.0428 Y303.6496 Z-2.0000 S1000
G1 F700 X238.8956 Y304.1989 Z-2.0000 S1000
G1 F700 X238.4935 Y304.6010 Z-2.0000 S1000
G1 F700 X237.9442 Y304.7482 Z-2.0000 S1000
G1 F700 X237.3949 Y304.6010 Z-2.0000 S1000
G1 F700 X236.9928 Y304.1989 Z-2.0000 S1000
G1 F700 X236.8456 Y303.6496 Z-2.0000 S1000
G1 F700 X236.9928 Y303.1003 Z-2.0000 S1000
G1 F700 X237.3949 Y302.6982 Z-2.0000 S1000
G1 F700 X237.9442 Y302.5510 Z-2.0000 S1000
G1 F700 X238.4935 Y302.6982 Z-2.0000 S1000
G1 F300 Z-3.5000
G1 F700 X238.8956 Y303.1003 Z-3.5000 S1000
G1 F700 X239.0428 Y303.6496 Z-3.5000 S1000
G1 F700 X238.8956 Y304.1989 Z-3.5000 S1000
G1 F700 X238.4935 Y304.6010 Z-3.5000 S1000
G1 F700 X237.9442 Y304.7482 Z-3.5000 S1000
G1 F700 X237.3949 Y304.6010 Z-3.5000 S1000
G1 F700 X236.9928 Y304.1989 Z-3.5000 S1000
G1 F700 X236.8456 Y303.6496 Z-3.5000 S1000
G1 F700 X236.9928 Y303.1003 Z-3.5000 S1000
G1 F700 X237.3949 Y302.6982 Z-3.5000 S1000
G1 F700 X237.9442 Y302.5510 Z-3.5000 S1000
G1 F700 X238.4935 Y302.6982 Z-3.5000 S1000

G0 Z10; move to z-safe height
G0 X239.4310 Y323.3232

G0 Z0
G1 F300 Z-2.0000
G1 F700 X239.8331 Y323.7253 Z-2.0000 S1000
G1 F700 X239.9803 Y324.2746 Z-2.0000 S1000
G1 F700 X239.8331 Y324.8239 Z-2.0000 S1000
G1 F700 X239.4310 Y325.2260 Z-2.0000 S1000
G1 F700 X238.8817 Y325.3732 Z-2.0000 S1000
G1 F700 X238.3324 Y325.2260 Z-2.0000 S1000
G1 F700 X237.9303 Y324.8239 Z-2.0000 S1000
G1 F700 X237.7831 Y324.2746 Z-2.0000 S1000
G1 F700 X237.9303 Y323.7253 Z-2.0000 S1000
G1 F700 X238.3324 Y323.3232 Z-2.0000 S1000
G1 F700 X238.8817 Y323.1760 Z-2.0000 S1000
G1 F700 X239.4310 Y323.3232 Z-2.0000 S1000
G1 F300 Z-3.5000
G1 F700 X239.8331 Y323.7253 Z-3.5000 S1000
G1 F700 X239.9803 Y324.2746 Z-3.5000 S1000
G1 F700 X239.8331 Y324.8239 Z-3.5000 S1000
G1 F700 X239.4310 Y325.2260 Z-3.5000 S1000
G1 F700 X238.8817 Y325.3732 Z-3.5000 S1000
G1 F700 X238.3324 Y325.2260 Z-3.5000 S1000
G1 F700 X237.9303 Y324.8239 Z-3.5000 S1000
G1 F700 X237.7831 Y324.2746 Z-3.5000 S1000
G1 F700 X237.9303 Y323.7253 Z-3.5000 S1000
G1 F700 X238.3324 Y323.3232 Z-3.5000 S1000
G1 F700 X238.8817 Y323.1760 Z-3.5000 S1000
G1 F700 X239.4310 Y323.3232 Z-3.5000 S1000

G0 Z10; move to z-safe height
G0 X239.4310 Y363.6357

G0 Z0
G1 F300 Z-2.0000
G1 F700 X239.8331 Y364.0378 Z-2.0000 S1000
G1 F700 X239.9803 Y364.5871 Z-2.0000 S1000
G1 F700 X239.8331 Y365.1364 Z-2.0000 S1000
G1 F700 X239.4310 Y365.5385 Z-2.0000 S1000
G1 F700 X238.8817 Y365.6857 Z-2.0000 S1000
G1 F700 X238.3324 Y365.5385 Z-2.0000 S1000
G1 F700 X237.9303 Y365.1364 Z-2.0000 S1000
G1 F700 X237.7831 Y364.5871 Z-2.0000 S1000
G1 F700 X237.9303 Y364.0378 Z-2.0000 S1000
G1 F700 X238.3324 Y363.6357 Z-2.0000 S1000
G1 F700 X238.8817 Y363.4885 Z-2.0000 S1000
G1 F700 X239.4310 Y363.6357 Z-2.0000 S1000
G1 F300 Z-3.5000
G1 F700 X239.8331 Y364.0378 Z-3.5000 S1000
G1 F700 X239.9803 Y364.5871 Z-3.5000 S1000
G1 F700 X239.8331 Y365.1364 Z-3.5000 S1000
G1 F700 X239.4310 Y365.5385 Z-3.5000 S1000
G1 F700 X238.8817 Y365.6857 Z-3.5000 S1000
G1 F700 X238.3324 Y365.5385 Z-3.5000 S1000
G1 F700 X237.9303 Y365.1364 Z-3.5000 S1000
G1 F700 X237.7831 Y364.5871 Z-3.5000 S1000
G1 F700 X237.9303 Y364.0378 Z-3.5000 S1000
G1 F700 X238.3324 Y363.6357 Z-3.5000 S1000
G1 F700 X238.8817 Y363.4885 Z-3.5000 S1000
G1 F700 X239.4310 Y363.6357 Z-3.5000 S1000

G0 Z10; move to z-safe height
G0 X213.1810 Y302.6982

G0 Z0
G1 F300 Z-2.0000
G1 F700 X213.5831 Y303.1003 Z-2.0000 S1000
G1 F700 X213.7303 Y303.6496 Z-2.0000 S1000
G1 F700 X213.5831 Y304.1989 Z-2.0000 S1000
G1 F700 X213.1810 Y304.6010 Z-2.0000 S1000
G1 F700 X212.6317 Y304.7482 Z-2.0000 S1000
G1 F700 X212.0824 Y304.6010 Z-2.0000 S1000
G1 F700 X211.6803 Y304.1989 Z-2.0000 S1000
G1 F700 X211.5331 Y303.6496 Z-2.0000 S1000
G1 F700 X211.6803 Y303.1003 Z-2.0000 S1000
G1 F700 X212.0824 Y302.6982 Z-2.0000 S1000
G1 F700 X212.6317 Y302.5510 Z-2.0000 S1000
G1 F700 X213.1810 Y302.6982 Z-2.0000 S1000
G1 F300 Z-3.5000
G1 F700 X213.5831 Y303.1003 Z-3.5000 S1000
G1 F700 X213.7303 Y303.6496 Z-3.5000 S1000
G1 F700 X213.5831 Y304.1989 Z-3.5000 S1000
G1 F700 X213.1810 Y304.6010 Z-3.5000 S1000
G1 F700 X212.6317 Y304.7482 Z-3.5000 S1000
G1 F700 X212.0824 Y304.6010 Z-3.5000 S1000
G1 F700 X211.6803 Y304.1989 Z-3.5000 S1000
G1 F700 X211.5331 Y303.6496 Z-3.5000 S1000
G1 F700 X211.6803 Y303.1003 Z-3.5000 S1000
G1 F700 X212.0824 Y302.6982 Z-3.5000 S1000
G1 F700 X212.6317 Y302.5510 Z-3.5000 S1000
G1 F700 X213.1810 Y302.6982 Z-3.5000 S1000

G0 Z10; move to z-safe height
G0 X186.5427 Y344.3365

G0 Z0
G1 F300 Z-2.0000
G1 F700 X186.9448 Y344.7386 Z-2.0000 S1000
G1 F700 X187.0920 Y345.2879 Z-2.0000 S1000
G1 F700 X186.9448 Y345.8372 Z-2.0000 S1000
G1 F700 X186.5427 Y346.2393 Z-2.0000 S1000
G1 F700 X185.9934 Y346.3865 Z-2.0000 S1000
G1 F700 X185.4441 Y346.2393 Z-2.0000 S1000
G1 F700 X185.0420 Y345.8372 Z-2.0000 S1000
G1 F700 X184.8948 Y345.2879 Z-2.0000 S1000
G1 F700 X185.0420 Y344.7386 Z-2.0000 S1000
G1 F700 X185.4441 Y344.3365 Z-2.0000 S1000
G1 F700 X185.9934 Y344.1893 Z-2.0000 S1000
G1 F700 X186.5427 Y344.3365 Z-2.0000 S1000
G1 F300 Z-3.5000
G1 F700 X186.9448 Y344.7386 Z-3.5000 S1000
G1 F700 X187.0920 Y345.2879 Z-3.5000 S1000
G1 F700 X186.9448 Y345.8372 Z-3.5000 S1000
G1 F700 X186.5427 Y346.2393 Z-3.5000 S1000
G1 F700 X185.9934 Y346.3865 Z-3.5000 S1000
G1 F700 X185.4441 Y346.2393 Z-3.5000 S1000
G1 F700 X185.0420 Y345.8372 Z-3.5000 S1000
G1 F700 X184.8948 Y345.2879 Z-3.5000 S1000
G1 F700 X185.0420 Y344.7386 Z-3.5000 S1000
G1 F700 X185.4441 Y344.3365 Z-3.5000 S1000
G1 F700 X185.9934 Y344.1893 Z-3.5000 S1000
G1 F700 X186.5427 Y344.3365 Z-3.5000 S1000

G0 Z10; move to z-safe height
G0 X184.6676 Y94.9615

G0 Z0
G1 F300 Z-2.0000
G1 F700 X185.0697 Y95.3636 Z-2.0000 S1000
G1 F700 X185.2169 Y95.9129 Z-2.0000 S1000
G1 F700 X185.0697 Y96.4622 Z-2.0000 S1000
G1 F700 X184.6676 Y96.8643 Z-2.0000 S1000
G1 F700 X184.1183 Y97.0115 Z-2.0000 S1000
G1 F700 X183.5690 Y96.8643 Z-2.0000 S1000
G1 F700 X183.1669 Y96.4622 Z-2.0000 S1000
G1 F700 X183.0197 Y95.9129 Z-2.0000 S1000
G1 F700 X183.1669 Y95.3636 Z-2.0000 S1000
G1 F700 X183.5690 Y94.9615 Z-2.0000 S1000
G1 F700 X184.1183 Y94.8143 Z-2.0000 S1000
G1 F700 X184.6676 Y94.9615 Z-2.0000 S1000
G1 F300 Z-3.5000
G1 F700 X185.0697 Y95.3636 Z-3.5000 S1000
G1 F700 X185.2169 Y95.9129 Z-3.5000 S1000
G1 F700 X185.0697 Y96.4622 Z-3.5000 S1000
G1 F700 X184.6676 Y96.8643 Z-3.5000 S1000
G1 F700 X184.1183 Y97.0115 Z-3.5000 S1000
G1 F700 X183.5690 Y96.8643 Z-3.5000 S1000
G1 F700 X183.1669 Y96.4622 Z-3.5000 S1000
G1 F700 X183.0197 Y95.9129 Z-3.5000 S1000
G1 F700 X183.1669 Y95.3636 Z-3.5000 S1000
G1 F700 X183.5690 Y94.9615 Z-3.5000 S1000
G1 F700 X184.1183 Y94.8143 Z-3.5000 S1000
G1 F700 X184.6676 Y94.9615 Z-3.5000 S1000

G0 Z10; move to z-safe height
G0 X236.6185 Y94.5732

G0 Z0
G1 F300 Z-2.0000
G1 F700 X237.0206 Y94.9753 Z-2.0000 S1000
G1 F700 X237.1678 Y95.5246 Z-2.0000 S1000
G1 F700 X237.0206 Y96.0739 Z-2.0000 S1000
G1 F700 X236.6185 Y96.4760 Z-2.0000 S1000
G1 F700 X236.0692 Y96.6232 Z-2.0000 S1000
G1 F700 X235.5199 Y96.4760 Z-2.0000 S1000
G1 F700 X235.1178 Y96.0739 Z-2.0000 S1000
G1 F700 X234.9706 Y95.5246 Z-2.0000 S1000
G1 F700 X235.1178 Y94.9753 Z-2.0000 S1000
G1 F700 X235.5199 Y94.5732 Z-2.0000 S1000
G1 F700 X236.0692 Y94.4260 Z-2.0000 S1000
G1 F700 X236.6185 Y94.5732 Z-2.0000 S1000
G1 F300 Z-3.5000
G1 F700 X237.0206 Y94.9753 Z-3.5000 S1000
G1 F700 X237.1678 Y95.5246 Z-3.5000 S1000
G1 F700 X237.0206 Y96.0739 Z-3.5000 S1000
G1 F700 X236.6185 Y96.4760 Z-3.5000 S1000
G1 F700 X236.0692 Y96.6232 Z-3.5000 S1000
G1 F700 X235.5199 Y96.4760 Z-3.5000 S1000
G1 F700 X235.1178 Y96.0739 Z-3.5000 S1000
G1 F700 X234.9706 Y95.5246 Z-3.5000 S1000
G1 F700 X235.1178 Y94.9753 Z-3.5000 S1000
G1 F700 X235.5199 Y94.5732 Z-3.5000 S1000
G1 F700 X236.0692 Y94.4260 Z-3.5000 S1000
G1 F700 X236.6185 Y94.5732 Z-3.5000 S1000

G0 Z10; move to z-safe height
G0 X186.5426 Y303.0865

G0 Z0
G1 F300 Z-2.0000
G1 F700 X186.9447 Y303.4886 Z-2.0000 S1000
G1 F700 X187.0919 Y304.0379 Z-2.0000 S1000
G1 F700 X186.9447 Y304.5872 Z-2.0000 S1000
G1 F700 X186.5426 Y304.9893 Z-2.0000 S1000
G1 F700 X185.9933 Y305.1365 Z-2.0000 S1000
G1 F700 X185.4440 Y304.9893 Z-2.0000 S1000
G1 F700 X185.0419 Y304.5872 Z-2.0000 S1000
G1 F700 X184.8947 Y304.0379 Z-2.0000 S1000
G1 F700 X185.0419 Y303.4886 Z-2.0000 S1000
G1 F700 X185.4440 Y303.0865 Z-2.0000 S1000
G1 F700 X185.9933 Y302.9393 Z-2.0000 S1000
G1 F700 X186.5426 Y303.0865 Z-2.0000 S1000
G1 F300 Z-3.5000
G1 F700 X186.9447 Y303.4886 Z-3.5000 S1000
G1 F700 X187.0919 Y304.0379 Z-3.5000 S1000
G1 F700 X186.9447 Y304.5872 Z-3.5000 S1000
G1 F700 X186.5426 Y304.9893 Z-3.5000 S1000
G1 F700 X185.9933 Y305.1365 Z-3.5000 S1000
G1 F700 X185.4440 Y304.9893 Z-3.5000 S1000
G1 F700 X185.0419 Y304.5872 Z-3.5000 S1000
G1 F700 X184.8947 Y304.0379 Z-3.5000 S1000
G1 F700 X185.0419 Y303.4886 Z-3.5000 S1000
G1 F700 X185.4440 Y303.0865 Z-3.5000 S1000
G1 F700 X185.9933 Y302.9393 Z-3.5000 S1000
G1 F700 X186.5426 Y303.0865 Z-3.5000 S1000

G0 Z10; move to z-safe height
G0 X213.1810 Y343.9482

G0 Z0
G1 F300 Z-2.0000
G1 F700 X213.5831 Y344.3503 Z-2.0000 S1000
G1 F700 X213.7303 Y344.8996 Z-2.0000 S1000
G1 F700 X213.5831 Y345.4489 Z-2.0000 S1000
G1 F700 X213.1810 Y345.8510 Z-2.0000 S1000
G1 F700 X212.6317 Y345.9982 Z-2.0000 S1000
G1 F700 X212.0824 Y345.8510 Z-2.0000 S1000
G1 F700 X211.6803 Y345.4489 Z-2.0000 S1000
G1 F700 X211.5331 Y344.8996 Z-2.0000 S1000
G1 F700 X211.6803 Y344.3503 Z-2.0000 S1000
G1 F700 X212.0824 Y343.9482 Z-2.0000 S1000
G1 F700 X212.6317 Y343.8010 Z-2.0000 S1000
G1 F700 X213.1810 Y343.9482 Z-2.0000 S1000
G1 F300 Z-3.5000
G1 F700 X213.5831 Y344.3503 Z-3.5000 S1000
G1 F700 X213.7303 Y344.8996 Z-3.5000 S1000
G1 F700 X213.5831 Y345.4489 Z-3.5000 S1000
G1 F700 X213.1810 Y345.8510 Z-3.5000 S1000
G1 F700 X212.6317 Y345.9982 Z-3.5000 S1000
G1 F700 X212.0824 Y345.8510 Z-3.5000 S1000
G1 F700 X211.6803 Y345.4489 Z-3.5000 S1000
G1 F700 X211.5331 Y344.8996 Z-3.5000 S1000
G1 F700 X211.6803 Y344.3503 Z-3.5000 S1000
G1 F700 X212.0824 Y343.9482 Z-3.5000 S1000
G1 F700 X212.6317 Y343.8010 Z-3.5000 S1000
G1 F700 X213.1810 Y343.9482 Z-3.5000 S1000

G0 Z10; move to z-safe height
G0 X214.1185 Y323.3232

G0 Z0
G1 F300 Z-2.0000
G1 F700 X214.5206 Y323.7253 Z-2.0000 S1000
G1 F700 X214.6678 Y324.2746 Z-2.0000 S1000
G1 F700 X214.5206 Y324.8239 Z-2.0000 S1000
G1 F700 X214.1185 Y325.2260 Z-2.0000 S1000
G1 F700 X213.5692 Y325.3732 Z-2.0000 S1000
G1 F700 X213.0199 Y325.2260 Z-2.0000 S1000
G1 F700 X212.6178 Y324.8239 Z-2.0000 S1000
G1 F700 X212.4706 Y324.2746 Z-2.0000 S1000
G1 F700 X212.6178 Y323.7253 Z-2.0000 S1000
G1 F700 X213.0199 Y323.3232 Z-2.0000 S1000
G1 F700 X213.5692 Y323.1760 Z-2.0000 S1000
G1 F700 X214.1185 Y323.3232 Z-2.0000 S1000
G1 F300 Z-3.5000
G1 F700 X214.5206 Y323.7253 Z-3.5000 S1000
G1 F700 X214.6678 Y324.2746 Z-3.5000 S1000
G1 F700 X214.5206 Y324.8239 Z-3.5000 S1000
G1 F700 X214.1185 Y325.2260 Z-3.5000 S1000
G1 F700 X213.5692 Y325.3732 Z-3.5000 S1000
G1 F700 X213.0199 Y325.2260 Z-3.5000 S1000
G1 F700 X212.6178 Y324.8239 Z-3.5000 S1000
G1 F700 X212.4706 Y324.2746 Z-3.5000 S1000
G1 F700 X212.6178 Y323.7253 Z-3.5000 S1000
G1 F700 X213.0199 Y323.3232 Z-3.5000 S1000
G1 F700 X213.5692 Y323.1760 Z-3.5000 S1000
G1 F700 X214.1185 Y323.3232 Z-3.5000 S1000

G0 Z10; move to z-safe height
G0 X214.1185 Y363.6357

G0 Z0
G1 F300 Z-2.0000
G1 F700 X214.5206 Y364.0378 Z-2.0000 S1000
G1 F700 X214.6678 Y364.5871 Z-2.0000 S1000
G1 F700 X214.5206 Y365.1364 Z-2.0000 S1000
G1 F700 X214.1185 Y365.5385 Z-2.0000 S1000
G1 F700 X213.5692 Y365.6857 Z-2.0000 S1000
G1 F700 X213.0199 Y365.5385 Z-2.0000 S1000
G1 F700 X212.6178 Y365.1364 Z-2.0000 S1000
G1 F700 X212.4706 Y364.5871 Z-2.0000 S1000
G1 F700 X212.6178 Y364.0378 Z-2.0000 S1000
G1 F700 X213.0199 Y363.6357 Z-2.0000 S1000
G1 F700 X213.5692 Y363.4885 Z-2.0000 S1000
G1 F700 X214.1185 Y363.6357 Z-2.0000 S1000
G1 F300 Z-3.5000
G1 F700 X214.5206 Y364.0378 Z-3.5000 S1000
G1 F700 X214.6678 Y364.5871 Z-3.5000 S1000
G1 F700 X214.5206 Y365.1364 Z-3.5000 S1000
G1 F700 X214.1185 Y365.5385 Z-3.5000 S1000
G1 F700 X213.5692 Y365.6857 Z-3.5000 S1000
G1 F700 X213.0199 Y365.5385 Z-3.5000 S1000
G1 F700 X212.6178 Y365.1364 Z-3.5000 S1000
G1 F700 X212.4706 Y364.5871 Z-3.5000 S1000
G1 F700 X212.6178 Y364.0378 Z-3.5000 S1000
G1 F700 X213.0199 Y363.6357 Z-3.5000 S1000
G1 F700 X213.5692 Y363.4885 Z-3.5000 S1000
G1 F700 X214.1185 Y363.6357 Z-3.5000 S1000

G0 Z10; move to z-safe height
G0 X238.4935 Y382.3857

G0 Z0
G1 F300 Z-2.0000
G1 F700 X238.8956 Y382.7878 Z-2.0000 S1000
G1 F700 X239.0428 Y383.3371 Z-2.0000 S1000
G1 F700 X238.8956 Y383.8864 Z-2.0000 S1000
G1 F700 X238.4935 Y384.2885 Z-2.0000 S1000
G1 F700 X237.9442 Y384.4357 Z-2.0000 S1000
G1 F700 X237.3949 Y384.2885 Z-2.0000 S1000
G1 F700 X236.9928 Y383.8864 Z-2.0000 S1000
G1 F700 X236.8456 Y383.3371 Z-2.0000 S1000
G1 F700 X236.9928 Y382.7878 Z-2.0000 S1000
G1 F700 X237.3949 Y382.3857 Z-2.0000 S1000
G1 F700 X237.9442 Y382.2385 Z-2.0000 S1000
G1 F700 X238.4935 Y382.3857 Z-2.0000 S1000
G1 F300 Z-3.5000
G1 F700 X238.8956 Y382.7878 Z-3.5000 S1000
G1 F700 X239.0428 Y383.3371 Z-3.5000 S1000
G1 F700 X238.8956 Y383.8864 Z-3.5000 S1000
G1 F700 X238.4935 Y384.2885 Z-3.5000 S1000
G1 F700 X237.9442 Y384.4357 Z-3.5000 S1000
G1 F700 X237.3949 Y384.2885 Z-3.5000 S1000
G1 F700 X236.9928 Y383.8864 Z-3.5000 S1000
G1 F700 X236.8456 Y383.3371 Z-3.5000 S1000
G1 F700 X236.9928 Y382.7878 Z-3.5000 S1000
G1 F700 X237.3949 Y382.3857 Z-3.5000 S1000
G1 F700 X237.9442 Y382.2385 Z-3.5000 S1000
G1 F700 X238.4935 Y382.3857 Z-3.5000 S1000

G0 Z10; move to z-safe height
G0 X186.5426 Y382.7740

G0 Z0
G1 F300 Z-2.0000
G1 F700 X186.9447 Y383.1761 Z-2.0000 S1000
G1 F700 X187.0919 Y383.7254 Z-2.0000 S1000
G1 F700 X186.9447 Y384.2747 Z-2.0000 S1000
G1 F700 X186.5426 Y384.6768 Z-2.0000 S1000
G1 F700 X185.9933 Y384.8240 Z-2.0000 S1000
G1 F700 X185.4440 Y384.6768 Z-2.0000 S1000
G1 F700 X185.0419 Y384.2747 Z-2.0000 S1000
G1 F700 X184.8947 Y383.7254 Z-2.0000 S1000
G1 F700 X185.0419 Y383.1761 Z-2.0000 S1000
G1 F700 X185.4440 Y382.7740 Z-2.0000 S1000
G1 F700 X185.9933 Y382.6268 Z-2.0000 S1000
G1 F700 X186.5426 Y382.7740 Z-2.0000 S1000
G1 F300 Z-3.5000
G1 F700 X186.9447 Y383.1761 Z-3.5000 S1000
G1 F700 X187.0919 Y383.7254 Z-3.5000 S1000
G1 F700 X186.9447 Y384.2747 Z-3.5000 S1000
G1 F700 X186.5426 Y384.6768 Z-3.5000 S1000
G1 F700 X185.9933 Y384.8240 Z-3.5000 S1000
G1 F700 X185.4440 Y384.6768 Z-3.5000 S1000
G1 F700 X185.0419 Y384.2747 Z-3.5000 S1000
G1 F700 X184.8947 Y383.7254 Z-3.5000 S1000
G1 F700 X185.0419 Y383.1761 Z-3.5000 S1000
G1 F700 X185.4440 Y382.7740 Z-3.5000 S1000
G1 F700 X185.9933 Y382.6268 Z-3.5000 S1000
G1 F700 X186.5426 Y382.7740 Z-3.5000 S1000

G0 Z10; move to z-safe height
G0 X229.5872 Y64.4928

G0 Z0
G1 F300 Z-2.0000
G1 F700 X229.9893 Y64.8949 Z-2.0000 S1000
G1 F700 X230.1365 Y65.4442 Z-2.0000 S1000
G1 F700 X229.9894 Y65.9933 Z-2.0000 S1000
G1 F700 X229.5871 Y66.3955 Z-2.0000 S1000
G1 F700 X229.0379 Y66.5427 Z-2.0000 S1000
G1 F700 X228.4887 Y66.3955 Z-2.0000 S1000
G1 F700 X228.0864 Y65.9933 Z-2.0000 S1000
G1 F700 X227.9393 Y65.4442 Z-2.0000 S1000
G1 F700 X228.0865 Y64.8949 Z-2.0000 S1000
G1 F700 X228.4886 Y64.4928 Z-2.0000 S1000
G1 F700 X229.0379 Y64.3456 Z-2.0000 S1000
G1 F700 X229.5872 Y64.4928 Z-2.0000 S1000
G1 F300 Z-3.5000
G1 F700 X229.9893 Y64.8949 Z-3.5000 S1000
G1 F700 X230.1365 Y65.4442 Z-3.5000 S1000
G1 F700 X229.9894 Y65.9933 Z-3.5000 S1000
G1 F700 X229.5871 Y66.3955 Z-3.5000 S1000
G1 F700 X229.0379 Y66.5427 Z-3.5000 S1000
G1 F700 X228.4887 Y66.3955 Z-3.5000 S1000
G1 F700 X228.0864 Y65.9933 Z-3.5000 S1000
G1 F700 X227.9393 Y65.4442 Z-3.5000 S1000
G1 F700 X228.0865 Y64.8949 Z-3.5000 S1000
G1 F700 X228.4886 Y64.4928 Z-3.5000 S1000
G1 F700 X229.0379 Y64.3456 Z-3.5000 S1000
G1 F700 X229.5872 Y64.4928 Z-3.5000 S1000

G0 Z10; move to z-safe height
G0 X229.1989 Y37.8544

G0 Z0
G1 F300 Z-2.0000
G1 F700 X229.6010 Y38.2565 Z-2.0000 S1000
G1 F700 X229.7482 Y38.8058 Z-2.0000 S1000
G1 F700 X229.6010 Y39.3551 Z-2.0000 S1000
G1 F700 X229.1989 Y39.7572 Z-2.0000 S1000
G1 F700 X228.6496 Y39.9044 Z-2.0000 S1000
G1 F700 X228.1003 Y39.7572 Z-2.0000 S1000
G1 F700 X227.6982 Y39.3551 Z-2.0000 S1000
G1 F700 X227.5510 Y38.8058 Z-2.0000 S1000
G1 F700 X227.6982 Y38.2565 Z-2.0000 S1000
G1 F700 X228.1003 Y37.8544 Z-2.0000 S1000
G1 F700 X228.6496 Y37.7072 Z-2.0000 S1000
G1 F700 X229.1989 Y37.8544 Z-2.0000 S1000
G1 F300 Z-3.5000
G1 F700 X229.6010 Y38.2565 Z-3.5000 S1000
G1 F700 X229.7482 Y38.8058 Z-3.5000 S1000
G1 F700 X229.6010 Y39.3551 Z-3.5000 S1000
G1 F700 X229.1989 Y39.7572 Z-3.5000 S1000
G1 F700 X228.6496 Y39.9044 Z-3.5000 S1000
G1 F700 X228.1003 Y39.7572 Z-3.5000 S1000
G1 F700 X227.6982 Y39.3551 Z-3.5000 S1000
G1 F700 X227.5510 Y38.8058 Z-3.5000 S1000
G1 F700 X227.6982 Y38.2565 Z-3.5000 S1000
G1 F700 X228.1003 Y37.8544 Z-3.5000 S1000
G1 F700 X228.6496 Y37.7072 Z-3.5000 S1000
G1 F700 X229.1989 Y37.8544 Z-3.5000 S1000

G0 Z10; move to z-safe height
G0 X229.1989 Y12.5420

G0 Z0
G1 F300 Z-2.0000
G1 F700 X229.6010 Y12.9441 Z-2.0000 S1000
G1 F700 X229.7482 Y13.4934 Z-2.0000 S1000
G1 F700 X229.6010 Y14.0427 Z-2.0000 S1000
G1 F700 X229.1989 Y14.4448 Z-2.0000 S1000
G1 F700 X228.6496 Y14.5920 Z-2.0000 S1000
G1 F700 X228.1003 Y14.4448 Z-2.0000 S1000
G1 F700 X227.6982 Y14.0427 Z-2.0000 S1000
G1 F700 X227.5510 Y13.4934 Z-2.0000 S1000
G1 F700 X227.6982 Y12.9441 Z-2.0000 S1000
G1 F700 X228.1003 Y12.5420 Z-2.0000 S1000
G1 F700 X228.6496 Y12.3948 Z-2.0000 S1000
G1 F700 X229.1989 Y12.5420 Z-2.0000 S1000
G1 F300 Z-3.5000
G1 F700 X229.6010 Y12.9441 Z-3.5000 S1000
G1 F700 X229.7482 Y13.4934 Z-3.5000 S1000
G1 F700 X229.6010 Y14.0427 Z-3.5000 S1000
G1 F700 X229.1989 Y14.4448 Z-3.5000 S1000
G1 F700 X228.6496 Y14.5920 Z-3.5000 S1000
G1 F700 X228.1003 Y14.4448 Z-3.5000 S1000
G1 F700 X227.6982 Y14.0427 Z-3.5000 S1000
G1 F700 X227.5510 Y13.4934 Z-3.5000 S1000
G1 F700 X227.6982 Y12.9441 Z-3.5000 S1000
G1 F700 X228.1003 Y12.5420 Z-3.5000 S1000
G1 F700 X228.6496 Y12.3948 Z-3.5000 S1000
G1 F700 X229.1989 Y12.5420 Z-3.5000 S1000

G0 Z10; move to z-safe height
G0 X211.3060 Y94.5732

G0 Z0
G1 F300 Z-2.0000
G1 F700 X211.7081 Y94.9753 Z-2.0000 S1000
G1 F700 X211.8553 Y95.5246 Z-2.0000 S1000
G1 F700 X211.7081 Y96.0739 Z-2.0000 S1000
G1 F700 X211.3060 Y96.4760 Z-2.0000 S1000
G1 F700 X210.7567 Y96.6232 Z-2.0000 S1000
G1 F700 X210.2074 Y96.4760 Z-2.0000 S1000
G1 F700 X209.8053 Y96.0739 Z-2.0000 S1000
G1 F700 X209.6581 Y95.5246 Z-2.0000 S1000
G1 F700 X209.8053 Y94.9753 Z-2.0000 S1000
G1 F700 X210.2074 Y94.5732 Z-2.0000 S1000
G1 F700 X210.7567 Y94.4260 Z-2.0000 S1000
G1 F700 X211.3060 Y94.5732 Z-2.0000 S1000
G1 F300 Z-3.5000
G1 F700 X211.7081 Y94.9753 Z-3.5000 S1000
G1 F700 X211.8553 Y95.5246 Z-3.5000 S1000
G1 F700 X211.7081 Y96.0739 Z-3.5000 S1000
G1 F700 X211.3060 Y96.4760 Z-3.5000 S1000
G1 F700 X210.7567 Y96.6232 Z-3.5000 S1000
G1 F700 X210.2074 Y96.4760 Z-3.5000 S1000
G1 F700 X209.8053 Y96.0739 Z-3.5000 S1000
G1 F700 X209.6581 Y95.5246 Z-3.5000 S1000
G1 F700 X209.8053 Y94.9753 Z-3.5000 S1000
G1 F700 X210.2074 Y94.5732 Z-3.5000 S1000
G1 F700 X210.7567 Y94.4260 Z-3.5000 S1000
G1 F700 X211.3060 Y94.5732 Z-3.5000 S1000

G0 Z10; move to z-safe height
G0 X190.2926 Y200.7049

G0 Z0
G1 F300 Z-2.0000
G1 F700 X190.6949 Y201.1071 Z-2.0000 S1000
G1 F700 X190.8420 Y201.6562 Z-2.0000 S1000
G1 F700 X190.6948 Y202.2055 Z-2.0000 S1000
G1 F700 X190.2927 Y202.6076 Z-2.0000 S1000
G1 F700 X189.7434 Y202.7548 Z-2.0000 S1000
G1 F700 X189.1941 Y202.6076 Z-2.0000 S1000
G1 F700 X188.7920 Y202.2055 Z-2.0000 S1000
G1 F700 X188.6448 Y201.6562 Z-2.0000 S1000
G1 F700 X188.7919 Y201.1071 Z-2.0000 S1000
G1 F700 X189.1942 Y200.7049 Z-2.0000 S1000
G1 F700 X189.7434 Y200.5577 Z-2.0000 S1000
G1 F700 X190.2926 Y200.7049 Z-2.0000 S1000
G1 F300 Z-3.5000
G1 F700 X190.6949 Y201.1071 Z-3.5000 S1000
G1 F700 X190.8420 Y201.6562 Z-3.5000 S1000
G1 F700 X190.6948 Y202.2055 Z-3.5000 S1000
G1 F700 X190.2927 Y202.6076 Z-3.5000 S1000
G1 F700 X189.7434 Y202.7548 Z-3.5000 S1000
G1 F700 X189.1941 Y202.6076 Z-3.5000 S1000
G1 F700 X188.7920 Y202.2055 Z-3.5000 S1000
G1 F700 X188.6448 Y201.6562 Z-3.5000 S1000
G1 F700 X188.7919 Y201.1071 Z-3.5000 S1000
G1 F700 X189.1942 Y200.7049 Z-3.5000 S1000
G1 F700 X189.7434 Y200.5577 Z-3.5000 S1000
G1 F700 X190.2926 Y200.7049 Z-3.5000 S1000

G0 Z10; move to z-safe height
G0 X216.9310 Y200.3165

G0 Z0
G1 F300 Z-2.0000
G1 F700 X217.3331 Y200.7186 Z-2.0000 S1000
G1 F700 X217.4803 Y201.2679 Z-2.0000 S1000
G1 F700 X217.3331 Y201.8172 Z-2.0000 S1000
G1 F700 X216.9310 Y202.2193 Z-2.0000 S1000
G1 F700 X216.3817 Y202.3665 Z-2.0000 S1000
G1 F700 X215.8324 Y202.2193 Z-2.0000 S1000
G1 F700 X215.4303 Y201.8172 Z-2.0000 S1000
G1 F700 X215.2831 Y201.2679 Z-2.0000 S1000
G1 F700 X215.4303 Y200.7186 Z-2.0000 S1000
G1 F700 X215.8324 Y200.3165 Z-2.0000 S1000
G1 F700 X216.3817 Y200.1693 Z-2.0000 S1000
G1 F700 X216.9310 Y200.3165 Z-2.0000 S1000
G1 F300 Z-3.5000
G1 F700 X217.3331 Y200.7186 Z-3.5000 S1000
G1 F700 X217.4803 Y201.2679 Z-3.5000 S1000
G1 F700 X217.3331 Y201.8172 Z-3.5000 S1000
G1 F700 X216.9310 Y202.2193 Z-3.5000 S1000
G1 F700 X216.3817 Y202.3665 Z-3.5000 S1000
G1 F700 X215.8324 Y202.2193 Z-3.5000 S1000
G1 F700 X215.4303 Y201.8172 Z-3.5000 S1000
G1 F700 X215.2831 Y201.2679 Z-3.5000 S1000
G1 F700 X215.4303 Y200.7186 Z-3.5000 S1000
G1 F700 X215.8324 Y200.3165 Z-3.5000 S1000
G1 F700 X216.3817 Y200.1693 Z-3.5000 S1000
G1 F700 X216.9310 Y200.3165 Z-3.5000 S1000

G0 Z10; move to z-safe height
G0 X187.4801 Y323.7115

G0 Z0
G1 F300 Z-2.0000
G1 F700 X187.8822 Y324.1136 Z-2.0000 S1000
G1 F700 X188.0294 Y324.6629 Z-2.0000 S1000
G1 F700 X187.8822 Y325.2122 Z-2.0000 S1000
G1 F700 X187.4801 Y325.6143 Z-2.0000 S1000
G1 F700 X186.9308 Y325.7615 Z-2.0000 S1000
G1 F700 X186.3815 Y325.6143 Z-2.0000 S1000
G1 F700 X185.9794 Y325.2122 Z-2.0000 S1000
G1 F700 X185.8322 Y324.6629 Z-2.0000 S1000
G1 F700 X185.9794 Y324.1136 Z-2.0000 S1000
G1 F700 X186.3815 Y323.7115 Z-2.0000 S1000
G1 F700 X186.9308 Y323.5643 Z-2.0000 S1000
G1 F700 X187.4801 Y323.7115 Z-2.0000 S1000
G1 F300 Z-3.5000
G1 F700 X187.8822 Y324.1136 Z-3.5000 S1000
G1 F700 X188.0294 Y324.6629 Z-3.5000 S1000
G1 F700 X187.8822 Y325.2122 Z-3.5000 S1000
G1 F700 X187.4801 Y325.6143 Z-3.5000 S1000
G1 F700 X186.9308 Y325.7615 Z-3.5000 S1000
G1 F700 X186.3815 Y325.6143 Z-3.5000 S1000
G1 F700 X185.9794 Y325.2122 Z-3.5000 S1000
G1 F700 X185.8322 Y324.6629 Z-3.5000 S1000
G1 F700 X185.9794 Y324.1136 Z-3.5000 S1000
G1 F700 X186.3815 Y323.7115 Z-3.5000 S1000
G1 F700 X186.9308 Y323.5643 Z-3.5000 S1000
G1 F700 X187.4801 Y323.7115 Z-3.5000 S1000

G0 Z10; move to z-safe height
G0 X242.2435 Y200.3165

G0 Z0
G1 F300 Z-2.0000
G1 F700 X242.6456 Y200.7186 Z-2.0000 S1000
G1 F700 X242.7928 Y201.2679 Z-2.0000 S1000
G1 F700 X242.6456 Y201.8172 Z-2.0000 S1000
G1 F700 X242.2435 Y202.2193 Z-2.0000 S1000
G1 F700 X241.6942 Y202.3665 Z-2.0000 S1000
G1 F700 X241.1449 Y202.2193 Z-2.0000 S1000
G1 F700 X240.7428 Y201.8172 Z-2.0000 S1000
G1 F700 X240.5956 Y201.2679 Z-2.0000 S1000
G1 F700 X240.7428 Y200.7186 Z-2.0000 S1000
G1 F700 X241.1449 Y200.3165 Z-2.0000 S1000
G1 F700 X241.6942 Y200.1693 Z-2.0000 S1000
G1 F700 X242.2435 Y200.3165 Z-2.0000 S1000
G1 F300 Z-3.5000
G1 F700 X242.6456 Y200.7186 Z-3.5000 S1000
G1 F700 X242.7928 Y201.2679 Z-3.5000 S1000
G1 F700 X242.6456 Y201.8172 Z-3.5000 S1000
G1 F700 X242.2435 Y202.2193 Z-3.5000 S1000
G1 F700 X241.6942 Y202.3665 Z-3.5000 S1000
G1 F700 X241.1449 Y202.2193 Z-3.5000 S1000
G1 F700 X240.7428 Y201.8172 Z-3.5000 S1000
G1 F700 X240.5956 Y201.2679 Z-3.5000 S1000
G1 F700 X240.7428 Y200.7186 Z-3.5000 S1000
G1 F700 X241.1449 Y200.3165 Z-3.5000 S1000
G1 F700 X241.6942 Y200.1693 Z-3.5000 S1000
G1 F700 X242.2435 Y200.3165 Z-3.5000 S1000

G0 Z10; move to z-safe height
G0 X238.4935 Y343.9482

G0 Z0
G1 F300 Z-2.0000
G1 F700 X238.8956 Y344.3503 Z-2.0000 S1000
G1 F700 X239.0428 Y344.8996 Z-2.0000 S1000
G1 F700 X238.8956 Y345.4489 Z-2.0000 S1000
G1 F700 X238.4935 Y345.8510 Z-2.0000 S1000
G1 F700 X237.9442 Y345.9982 Z-2.0000 S1000
G1 F700 X237.3949 Y345.8510 Z-2.0000 S1000
G1 F700 X236.9928 Y345.4489 Z-2.0000 S1000
G1 F700 X236.8456 Y344.8996 Z-2.0000 S1000
G1 F700 X236.9928 Y344.3503 Z-2.0000 S1000
G1 F700 X237.3949 Y343.9482 Z-2.0000 S1000
G1 F700 X237.9442 Y343.8010 Z-2.0000 S1000
G1 F700 X238.4935 Y343.9482 Z-2.0000 S1000
G1 F300 Z-3.5000
G1 F700 X238.8956 Y344.3503 Z-3.5000 S1000
G1 F700 X239.0428 Y344.8996 Z-3.5000 S1000
G1 F700 X238.8956 Y345.4489 Z-3.5000 S1000
G1 F700 X238.4935 Y345.8510 Z-3.5000 S1000
G1 F700 X237.9442 Y345.9982 Z-3.5000 S1000
G1 F700 X237.3949 Y345.8510 Z-3.5000 S1000
G1 F700 X236.9928 Y345.4489 Z-3.5000 S1000
G1 F700 X236.8456 Y344.8996 Z-3.5000 S1000
G1 F700 X236.9928 Y344.3503 Z-3.5000 S1000
G1 F700 X237.3949 Y343.9482 Z-3.5000 S1000
G1 F700 X237.9442 Y343.8010 Z-3.5000 S1000
G1 F700 X238.4935 Y343.9482 Z-3.5000 S1000

G0 Z10; move to z-safe height
G0 X187.4801 Y364.0240

G0 Z0
G1 F300 Z-2.0000
G1 F700 X187.8822 Y364.4261 Z-2.0000 S1000
G1 F700 X188.0294 Y364.9754 Z-2.0000 S1000
G1 F700 X187.8822 Y365.5247 Z-2.0000 S1000
G1 F700 X187.4801 Y365.9268 Z-2.0000 S1000
G1 F700 X186.9308 Y366.0740 Z-2.0000 S1000
G1 F700 X186.3815 Y365.9268 Z-2.0000 S1000
G1 F700 X185.9794 Y365.5247 Z-2.0000 S1000
G1 F700 X185.8322 Y364.9754 Z-2.0000 S1000
G1 F700 X185.9794 Y364.4261 Z-2.0000 S1000
G1 F700 X186.3815 Y364.0240 Z-2.0000 S1000
G1 F700 X186.9308 Y363.8768 Z-2.0000 S1000
G1 F700 X187.4801 Y364.0240 Z-2.0000 S1000
G1 F300 Z-3.5000
G1 F700 X187.8822 Y364.4261 Z-3.5000 S1000
G1 F700 X188.0294 Y364.9754 Z-3.5000 S1000
G1 F700 X187.8822 Y365.5247 Z-3.5000 S1000
G1 F700 X187.4801 Y365.9268 Z-3.5000 S1000
G1 F700 X186.9308 Y366.0740 Z-3.5000 S1000
G1 F700 X186.3815 Y365.9268 Z-3.5000 S1000
G1 F700 X185.9794 Y365.5247 Z-3.5000 S1000
G1 F700 X185.8322 Y364.9754 Z-3.5000 S1000
G1 F700 X185.9794 Y364.4261 Z-3.5000 S1000
G1 F700 X186.3815 Y364.0240 Z-3.5000 S1000
G1 F700 X186.9308 Y363.8768 Z-3.5000 S1000
G1 F700 X187.4801 Y364.0240 Z-3.5000 S1000

G0 Z10; move to z-safe height
G0 X213.1810 Y382.3857

G0 Z0
G1 F300 Z-2.0000
G1 F700 X213.5831 Y382.7878 Z-2.0000 S1000
G1 F700 X213.7303 Y383.3371 Z-2.0000 S1000
G1 F700 X213.5831 Y383.8864 Z-2.0000 S1000
G1 F700 X213.1810 Y384.2885 Z-2.0000 S1000
G1 F700 X212.6317 Y384.4357 Z-2.0000 S1000
G1 F700 X212.0824 Y384.2885 Z-2.0000 S1000
G1 F700 X211.6803 Y383.8864 Z-2.0000 S1000
G1 F700 X211.5331 Y383.3371 Z-2.0000 S1000
G1 F700 X211.6803 Y382.7878 Z-2.0000 S1000
G1 F700 X212.0824 Y382.3857 Z-2.0000 S1000
G1 F700 X212.6317 Y382.2385 Z-2.0000 S1000
G1 F700 X213.1810 Y382.3857 Z-2.0000 S1000
G1 F300 Z-3.5000
G1 F700 X213.5831 Y382.7878 Z-3.5000 S1000
G1 F700 X213.7303 Y383.3371 Z-3.5000 S1000
G1 F700 X213.5831 Y383.8864 Z-3.5000 S1000
G1 F700 X213.1810 Y384.2885 Z-3.5000 S1000
G1 F700 X212.6317 Y384.4357 Z-3.5000 S1000
G1 F700 X212.0824 Y384.2885 Z-3.5000 S1000
G1 F700 X211.6803 Y383.8864 Z-3.5000 S1000
G1 F700 X211.5331 Y383.3371 Z-3.5000 S1000
G1 F700 X211.6803 Y382.7878 Z-3.5000 S1000
G1 F700 X212.0824 Y382.3857 Z-3.5000 S1000
G1 F700 X212.6317 Y382.2385 Z-3.5000 S1000
G1 F700 X213.1810 Y382.3857 Z-3.5000 S1000

G0 Z10; move to z-safe height
G0 X196.7987 Y62.7980

G0 Z0
G1 F300 Z-2.0000
G1 F700 X197.5366 Y63.0219 Z-2.0000 S1000
G1 F700 X198.2171 Y63.3855 Z-2.0000 S1000
G1 F700 X198.8129 Y63.8746 Z-2.0000 S1000
G1 F700 X199.3021 Y64.4706 Z-2.0000 S1000
G1 F700 X199.6657 Y65.1508 Z-2.0000 S1000
G1 F700 X199.8895 Y65.8887 Z-2.0000 S1000
G1 F700 X199.9652 Y66.6563 Z-2.0000 S1000
G1 F700 X199.8895 Y67.4238 Z-2.0000 S1000
G1 F700 X199.6657 Y68.1617 Z-2.0000 S1000
G1 F700 X199.3021 Y68.8419 Z-2.0000 S1000
G1 F700 X198.8129 Y69.4379 Z-2.0000 S1000
G1 F700 X198.2171 Y69.9270 Z-2.0000 S1000
G1 F700 X197.5366 Y70.2906 Z-2.0000 S1000
G1 F700 X196.7987 Y70.5146 Z-2.0000 S1000
G1 F700 X196.0313 Y70.5902 Z-2.0000 S1000
G1 F700 X195.2638 Y70.5145 Z-2.0000 S1000
G1 F700 X194.5260 Y70.2907 Z-2.0000 S1000
G1 F700 X193.8454 Y69.9270 Z-2.0000 S1000
G1 F700 X193.2499 Y69.4382 Z-2.0000 S1000
G1 F700 X192.7603 Y68.8416 Z-2.0000 S1000
G1 F700 X192.3968 Y68.1617 Z-2.0000 S1000
G1 F700 X192.1730 Y67.4238 Z-2.0000 S1000
G1 F700 X192.0974 Y66.6563 Z-2.0000 S1000
G1 F700 X192.1730 Y65.8887 Z-2.0000 S1000
G1 F700 X192.3968 Y65.1508 Z-2.0000 S1000
G1 F700 X192.7603 Y64.4709 Z-2.0000 S1000
G1 F700 X193.2499 Y63.8743 Z-2.0000 S1000
G1 F700 X193.8454 Y63.3855 Z-2.0000 S1000
G1 F700 X194.5260 Y63.0218 Z-2.0000 S1000
G1 F700 X195.2637 Y62.7980 Z-2.0000 S1000
G1 F700 X196.0313 Y62.7224 Z-2.0000 S1000
G1 F700 X196.7987 Y62.7980 Z-2.0000 S1000
G1 F300 Z-3.5000
G1 F700 X197.5366 Y63.0219 Z-3.5000 S1000
G1 F700 X198.2171 Y63.3855 Z-3.5000 S1000
G1 F700 X198.8129 Y63.8746 Z-3.5000 S1000
G1 F700 X199.3021 Y64.4706 Z-3.5000 S1000
G1 F700 X199.6657 Y65.1508 Z-3.5000 S1000
G1 F700 X199.8895 Y65.8887 Z-3.5000 S1000
G1 F700 X199.9652 Y66.6563 Z-3.5000 S1000
G1 F700 X199.8895 Y67.4238 Z-3.5000 S1000
G1 F700 X199.6657 Y68.1617 Z-3.5000 S1000
G1 F700 X199.3021 Y68.8419 Z-3.5000 S1000
G1 F700 X198.8129 Y69.4379 Z-3.5000 S1000
G1 F700 X198.2171 Y69.9270 Z-3.5000 S1000
G1 F700 X197.5366 Y70.2906 Z-3.5000 S1000
G1 F700 X196.7987 Y70.5146 Z-3.5000 S1000
G1 F700 X196.0313 Y70.5902 Z-3.5000 S1000
G1 F700 X195.2638 Y70.5145 Z-3.5000 S1000
G1 F700 X194.5260 Y70.2907 Z-3.5000 S1000
G1 F700 X193.8454 Y69.9270 Z-3.5000 S1000
G1 F700 X193.2499 Y69.4382 Z-3.5000 S1000
G1 F700 X192.7603 Y68.8416 Z-3.5000 S1000
G1 F700 X192.3968 Y68.1617 Z-3.5000 S1000
G1 F700 X192.1730 Y67.4238 Z-3.5000 S1000
G1 F700 X192.0974 Y66.6563 Z-3.5000 S1000
G1 F700 X192.1730 Y65.8887 Z-3.5000 S1000
G1 F700 X192.3968 Y65.1508 Z-3.5000 S1000
G1 F700 X192.7603 Y64.4709 Z-3.5000 S1000
G1 F700 X193.2499 Y63.8743 Z-3.5000 S1000
G1 F700 X193.8454 Y63.3855 Z-3.5000 S1000
G1 F700 X194.5260 Y63.0218 Z-3.5000 S1000
G1 F700 X195.2637 Y62.7980 Z-3.5000 S1000
G1 F700 X196.0313 Y62.7224 Z-3.5000 S1000
G1 F700 X196.7987 Y62.7980 Z-3.5000 S1000

G0 Z10; move to z-safe height
G0 X148.9863 Y7.4855

G0 Z0
G1 F300 Z-2.0000
G1 F700 X149.7240 Y7.7093 Z-2.0000 S1000
G1 F700 X150.4046 Y8.0730 Z-2.0000 S1000
G1 F700 X151.0004 Y8.5621 Z-2.0000 S1000
G1 F700 X151.4895 Y9.1579 Z-2.0000 S1000
G1 F700 X151.8532 Y9.8385 Z-2.0000 S1000
G1 F700 X152.0770 Y10.5763 Z-2.0000 S1000
G1 F700 X152.1527 Y11.3438 Z-2.0000 S1000
G1 F700 X152.0770 Y12.1112 Z-2.0000 S1000
G1 F700 X151.8532 Y12.8490 Z-2.0000 S1000
G1 F700 X151.4895 Y13.5296 Z-2.0000 S1000
G1 F700 X151.0004 Y14.1254 Z-2.0000 S1000
G1 F700 X150.4046 Y14.6145 Z-2.0000 S1000
G1 F700 X149.7240 Y14.9782 Z-2.0000 S1000
G1 F700 X148.9862 Y15.2020 Z-2.0000 S1000
G1 F700 X148.2188 Y15.2777 Z-2.0000 S1000
G1 F700 X147.4513 Y15.2020 Z-2.0000 S1000
G1 F700 X146.7135 Y14.9782 Z-2.0000 S1000
G1 F700 X146.0329 Y14.6145 Z-2.0000 S1000
G1 F700 X145.4371 Y14.1254 Z-2.0000 S1000
G1 F700 X144.9480 Y13.5296 Z-2.0000 S1000
G1 F700 X144.5843 Y12.8490 Z-2.0000 S1000
G1 F700 X144.3605 Y12.1113 Z-2.0000 S1000
G1 F700 X144.2849 Y11.3438 Z-2.0000 S1000
G1 F700 X144.3605 Y10.5762 Z-2.0000 S1000
G1 F700 X144.5843 Y9.8385 Z-2.0000 S1000
G1 F700 X144.9480 Y9.1579 Z-2.0000 S1000
G1 F700 X145.4371 Y8.5621 Z-2.0000 S1000
G1 F700 X146.0329 Y8.0730 Z-2.0000 S1000
G1 F700 X146.7135 Y7.7093 Z-2.0000 S1000
G1 F700 X147.4512 Y7.4855 Z-2.0000 S1000
G1 F700 X148.2188 Y7.4099 Z-2.0000 S1000
G1 F700 X148.9863 Y7.4855 Z-2.0000 S1000
G1 F300 Z-3.5000
G1 F700 X149.7240 Y7.7093 Z-3.5000 S1000
G1 F700 X150.4046 Y8.0730 Z-3.5000 S1000
G1 F700 X151.0004 Y8.5621 Z-3.5000 S1000
G1 F700 X151.4895 Y9.1579 Z-3.5000 S1000
G1 F700 X151.8532 Y9.8385 Z-3.5000 S1000
G1 F700 X152.0770 Y10.5763 Z-3.5000 S1000
G1 F700 X152.1527 Y11.3438 Z-3.5000 S1000
G1 F700 X152.0770 Y12.1112 Z-3.5000 S1000
G1 F700 X151.8532 Y12.8490 Z-3.5000 S1000
G1 F700 X151.4895 Y13.5296 Z-3.5000 S1000
G1 F700 X151.0004 Y14.1254 Z-3.5000 S1000
G1 F700 X150.4046 Y14.6145 Z-3.5000 S1000
G1 F700 X149.7240 Y14.9782 Z-3.5000 S1000
G1 F700 X148.9862 Y15.2020 Z-3.5000 S1000
G1 F700 X148.2188 Y15.2777 Z-3.5000 S1000
G1 F700 X147.4513 Y15.2020 Z-3.5000 S1000
G1 F700 X146.7135 Y14.9782 Z-3.5000 S1000
G1 F700 X146.0329 Y14.6145 Z-3.5000 S1000
G1 F700 X145.4371 Y14.1254 Z-3.5000 S1000
G1 F700 X144.9480 Y13.5296 Z-3.5000 S1000
G1 F700 X144.5843 Y12.8490 Z-3.5000 S1000
G1 F700 X144.3605 Y12.1113 Z-3.5000 S1000
G1 F700 X144.2849 Y11.3438 Z-3.5000 S1000
G1 F700 X144.3605 Y10.5762 Z-3.5000 S1000
G1 F700 X144.5843 Y9.8385 Z-3.5000 S1000
G1 F700 X144.9480 Y9.1579 Z-3.5000 S1000
G1 F700 X145.4371 Y8.5621 Z-3.5000 S1000
G1 F700 X146.0329 Y8.0730 Z-3.5000 S1000
G1 F700 X146.7135 Y7.7093 Z-3.5000 S1000
G1 F700 X147.4512 Y7.4855 Z-3.5000 S1000
G1 F700 X148.2188 Y7.4099 Z-3.5000 S1000
G1 F700 X148.9863 Y7.4855 Z-3.5000 S1000

G0 Z10; move to z-safe height
G0 X153.5625 Y305.2968

G0 Z0
G1 F300 Z-2.0000
G1 F700 X142.8750 Y305.2968 Z-2.0000 S1000
G1 F700 X142.8750 Y278.6718 Z-2.0000 S1000
G1 F700 X153.5625 Y278.6718 Z-2.0000 S1000
G1 F700 X153.5625 Y305.2968 Z-2.0000 S1000
G1 F300 Z-3.5000
G1 F700 X142.8750 Y305.2968 Z-3.5000 S1000
G1 F700 X142.8750 Y278.6718 Z-3.5000 S1000
G1 F700 X153.5625 Y278.6718 Z-3.5000 S1000
G1 F700 X153.5625 Y305.2968 Z-3.5000 S1000

G0 Z10; move to z-safe height
G0 X153.5625 Y115.5938

G0 Z0
G1 F300 Z-2.0000
G1 F700 X142.8750 Y115.5938 Z-2.0000 S1000
G1 F700 X142.8750 Y88.9688 Z-2.0000 S1000
G1 F700 X153.5625 Y88.9688 Z-2.0000 S1000
G1 F700 X153.5625 Y115.5938 Z-2.0000 S1000
G1 F300 Z-3.5000
G1 F700 X142.8750 Y115.5938 Z-3.5000 S1000
G1 F700 X142.8750 Y88.9688 Z-3.5000 S1000
G1 F700 X153.5625 Y88.9688 Z-3.5000 S1000
G1 F700 X153.5625 Y115.5938 Z-3.5000 S1000

G0 Z10; move to z-safe height
G0 X153.5625 Y210.2813

G0 Z0
G1 F300 Z-2.0000
G1 F700 X142.8750 Y210.2813 Z-2.0000 S1000
G1 F700 X142.8750 Y183.6563 Z-2.0000 S1000
G1 F700 X153.5625 Y183.6563 Z-2.0000 S1000
G1 F700 X153.5625 Y210.2813 Z-2.0000 S1000
G1 F300 Z-3.5000
G1 F700 X142.8750 Y210.2813 Z-3.5000 S1000
G1 F700 X142.8750 Y183.6563 Z-3.5000 S1000
G1 F700 X153.5625 Y183.6563 Z-3.5000 S1000
G1 F700 X153.5625 Y210.2813 Z-3.5000 S1000

G0 Z10; move to z-safe height
G0 X148.9862 Y380.6105

G0 Z0
G1 F300 Z-2.0000
G1 F700 X149.7240 Y380.8343 Z-2.0000 S1000
G1 F700 X150.4046 Y381.1980 Z-2.0000 S1000
G1 F700 X151.0004 Y381.6871 Z-2.0000 S1000
G1 F700 X151.4895 Y382.2829 Z-2.0000 S1000
G1 F700 X151.8532 Y382.9635 Z-2.0000 S1000
G1 F700 X152.0770 Y383.7013 Z-2.0000 S1000
G1 F700 X152.1527 Y384.4687 Z-2.0000 S1000
G1 F700 X152.0770 Y385.2362 Z-2.0000 S1000
G1 F700 X151.8532 Y385.9740 Z-2.0000 S1000
G1 F700 X151.4895 Y386.6546 Z-2.0000 S1000
G1 F700 X151.0004 Y387.2504 Z-2.0000 S1000
G1 F700 X150.4046 Y387.7395 Z-2.0000 S1000
G1 F700 X149.7240 Y388.1032 Z-2.0000 S1000
G1 F700 X148.9863 Y388.3270 Z-2.0000 S1000
G1 F700 X148.2188 Y388.4026 Z-2.0000 S1000
G1 F700 X147.4512 Y388.3270 Z-2.0000 S1000
G1 F700 X146.7135 Y388.1032 Z-2.0000 S1000
G1 F700 X146.0329 Y387.7395 Z-2.0000 S1000
G1 F700 X145.4371 Y387.2504 Z-2.0000 S1000
G1 F700 X144.9480 Y386.6546 Z-2.0000 S1000
G1 F700 X144.5843 Y385.9740 Z-2.0000 S1000
G1 F700 X144.3605 Y385.2363 Z-2.0000 S1000
G1 F700 X144.2849 Y384.4687 Z-2.0000 S1000
G1 F700 X144.3605 Y383.7012 Z-2.0000 S1000
G1 F700 X144.5843 Y382.9635 Z-2.0000 S1000
G1 F700 X144.9480 Y382.2829 Z-2.0000 S1000
G1 F700 X145.4371 Y381.6871 Z-2.0000 S1000
G1 F700 X146.0329 Y381.1980 Z-2.0000 S1000
G1 F700 X146.7135 Y380.8343 Z-2.0000 S1000
G1 F700 X147.4513 Y380.6105 Z-2.0000 S1000
G1 F700 X148.2188 Y380.5348 Z-2.0000 S1000
G1 F700 X148.9862 Y380.6105 Z-2.0000 S1000
G1 F300 Z-3.5000
G1 F700 X149.7240 Y380.8343 Z-3.5000 S1000
G1 F700 X150.4046 Y381.1980 Z-3.5000 S1000
G1 F700 X151.0004 Y381.6871 Z-3.5000 S1000
G1 F700 X151.4895 Y382.2829 Z-3.5000 S1000
G1 F700 X151.8532 Y382.9635 Z-3.5000 S1000
G1 F700 X152.0770 Y383.7013 Z-3.5000 S1000
G1 F700 X152.1527 Y384.4687 Z-3.5000 S1000
G1 F700 X152.0770 Y385.2362 Z-3.5000 S1000
G1 F700 X151.8532 Y385.9740 Z-3.5000 S1000
G1 F700 X151.4895 Y386.6546 Z-3.5000 S1000
G1 F700 X151.0004 Y387.2504 Z-3.5000 S1000
G1 F700 X150.4046 Y387.7395 Z-3.5000 S1000
G1 F700 X149.7240 Y388.1032 Z-3.5000 S1000
G1 F700 X148.9863 Y388.3270 Z-3.5000 S1000
G1 F700 X148.2188 Y388.4026 Z-3.5000 S1000
G1 F700 X147.4512 Y388.3270 Z-3.5000 S1000
G1 F700 X146.7135 Y388.1032 Z-3.5000 S1000
G1 F700 X146.0329 Y387.7395 Z-3.5000 S1000
G1 F700 X145.4371 Y387.2504 Z-3.5000 S1000
G1 F700 X144.9480 Y386.6546 Z-3.5000 S1000
G1 F700 X144.5843 Y385.9740 Z-3.5000 S1000
G1 F700 X144.3605 Y385.2363 Z-3.5000 S1000
G1 F700 X144.2849 Y384.4687 Z-3.5000 S1000
G1 F700 X144.3605 Y383.7012 Z-3.5000 S1000
G1 F700 X144.5843 Y382.9635 Z-3.5000 S1000
G1 F700 X144.9480 Y382.2829 Z-3.5000 S1000
G1 F700 X145.4371 Y381.6871 Z-3.5000 S1000
G1 F700 X146.0329 Y381.1980 Z-3.5000 S1000
G1 F700 X146.7135 Y380.8343 Z-3.5000 S1000
G1 F700 X147.4513 Y380.6105 Z-3.5000 S1000
G1 F700 X148.2188 Y380.5348 Z-3.5000 S1000
G1 F700 X148.9862 Y380.6105 Z-3.5000 S1000
; retracting back to z-safe
G0 Z10
; Operation 1: CNC: Vector (path outside)
; Endmill Diameter: 1.5

G0 Z10; move to z-safe height
G0 F1000 X191.1094 Y51.7500

G0 Z0
G1 F300 Z-2.0000
G1 F700 X180.5625 Y51.7500 Z-2.0000 S1000
G1 F700 X180.3244 Y51.7888 Z-2.0000 S1000
G1 F700 X180.0319 Y51.9700 Z-2.0000 S1000
G1 F700 X179.9382 Y52.0638 Z-2.0000 S1000
G1 F700 X179.7977 Y52.2589 Z-2.0000 S1000
G1 F700 X179.7188 Y52.5938 Z-2.0000 S1000
G1 F700 X179.7188 Y60.8906 Z-2.0000 S1000
G1 F700 X177.2813 Y60.8906 Z-2.0000 S1000
G1 F700 X177.0436 Y60.9293 Z-2.0000 S1000
G1 F700 X176.7510 Y61.1103 Z-2.0000 S1000
G1 F700 X176.6572 Y61.2041 Z-2.0000 S1000
G1 F700 X176.5164 Y61.3995 Z-2.0000 S1000
G1 F700 X176.4375 Y61.7344 Z-2.0000 S1000
G1 F700 X176.4375 Y71.5781 Z-2.0000 S1000
G1 F700 X176.4762 Y71.8158 Z-2.0000 S1000
G1 F700 X176.6572 Y72.1084 Z-2.0000 S1000
G1 F700 X176.7510 Y72.2022 Z-2.0000 S1000
G1 F700 X176.9464 Y72.3430 Z-2.0000 S1000
G1 F700 X177.2813 Y72.4219 Z-2.0000 S1000
G1 F700 X179.7188 Y72.4219 Z-2.0000 S1000
G1 F700 X179.7188 Y80.7188 Z-2.0000 S1000
G1 F700 X179.7575 Y80.9565 Z-2.0000 S1000
G1 F700 X179.9385 Y81.2491 Z-2.0000 S1000
G1 F700 X180.0322 Y81.3428 Z-2.0000 S1000
G1 F700 X180.2276 Y81.4836 Z-2.0000 S1000
G1 F700 X180.5625 Y81.5625 Z-2.0000 S1000
G1 F700 X191.1094 Y81.5625 Z-2.0000 S1000
G1 F700 X191.3471 Y81.5238 Z-2.0000 S1000
G1 F700 X191.6397 Y81.3428 Z-2.0000 S1000
G1 F700 X191.7334 Y81.2491 Z-2.0000 S1000
G1 F700 X191.8742 Y81.0537 Z-2.0000 S1000
G1 F700 X191.9531 Y80.7188 Z-2.0000 S1000
G1 F700 X191.9531 Y78.2812 Z-2.0000 S1000
G1 F700 X200.1094 Y78.2812 Z-2.0000 S1000
G1 F700 X200.1094 Y80.7188 Z-2.0000 S1000
G1 F700 X200.1481 Y80.9565 Z-2.0000 S1000
G1 F700 X200.3291 Y81.2491 Z-2.0000 S1000
G1 F700 X200.4228 Y81.3428 Z-2.0000 S1000
G1 F700 X200.6182 Y81.4836 Z-2.0000 S1000
G1 F700 X200.9531 Y81.5625 Z-2.0000 S1000
G1 F700 X211.5000 Y81.5625 Z-2.0000 S1000
G1 F700 X211.7373 Y81.5240 Z-2.0000 S1000
G1 F700 X212.0300 Y81.3431 Z-2.0000 S1000
G1 F700 X212.1238 Y81.2494 Z-2.0000 S1000
G1 F700 X212.2649 Y81.0537 Z-2.0000 S1000
G1 F700 X212.3438 Y80.7188 Z-2.0000 S1000
G1 F700 X212.3438 Y72.4219 Z-2.0000 S1000
G1 F700 X214.7813 Y72.4219 Z-2.0000 S1000
G1 F700 X215.0194 Y72.3831 Z-2.0000 S1000
G1 F700 X215.3119 Y72.2019 Z-2.0000 S1000
G1 F700 X215.4056 Y72.1081 Z-2.0000 S1000
G1 F700 X215.5461 Y71.9130 Z-2.0000 S1000
G1 F700 X215.6250 Y71.5781 Z-2.0000 S1000
G1 F700 X215.6250 Y61.7344 Z-2.0000 S1000
G1 F700 X215.5865 Y61.4971 Z-2.0000 S1000
G1 F700 X215.4056 Y61.2044 Z-2.0000 S1000
G1 F700 X215.3119 Y61.1106 Z-2.0000 S1000
G1 F700 X215.1162 Y60.9695 Z-2.0000 S1000
G1 F700 X214.7813 Y60.8906 Z-2.0000 S1000
G1 F700 X212.3438 Y60.8906 Z-2.0000 S1000
G1 F700 X212.3438 Y52.5938 Z-2.0000 S1000
G1 F700 X212.3051 Y52.3561 Z-2.0000 S1000
G1 F700 X212.1241 Y52.0635 Z-2.0000 S1000
G1 F700 X212.0303 Y51.9697 Z-2.0000 S1000
G1 F700 X211.8349 Y51.8289 Z-2.0000 S1000
G1 F700 X211.5000 Y51.7500 Z-2.0000 S1000
G1 F700 X200.9531 Y51.7500 Z-2.0000 S1000
G1 F700 X200.7150 Y51.7888 Z-2.0000 S1000
G1 F700 X200.4225 Y51.9700 Z-2.0000 S1000
G1 F700 X200.3288 Y52.0638 Z-2.0000 S1000
G1 F700 X200.1883 Y52.2589 Z-2.0000 S1000
G1 F700 X200.1094 Y52.5938 Z-2.0000 S1000
G1 F700 X200.1094 Y55.0313 Z-2.0000 S1000
G1 F700 X191.9531 Y55.0313 Z-2.0000 S1000
G1 F700 X191.9531 Y52.5938 Z-2.0000 S1000
G1 F700 X191.9146 Y52.3565 Z-2.0000 S1000
G1 F700 X191.7337 Y52.0638 Z-2.0000 S1000
G1 F700 X191.6400 Y51.9700 Z-2.0000 S1000
G1 F700 X191.4443 Y51.8289 Z-2.0000 S1000
G1 F700 X191.1094 Y51.7500 Z-2.0000 S1000
G1 F300 Z-3.5000
G1 F700 X180.5625 Y51.7500 Z-3.5000 S1000
G1 F700 X180.3244 Y51.7888 Z-3.5000 S1000
G1 F700 X180.0319 Y51.9700 Z-3.5000 S1000
G1 F700 X179.9382 Y52.0638 Z-3.5000 S1000
G1 F700 X179.7977 Y52.2589 Z-3.5000 S1000
G1 F700 X179.7188 Y52.5938 Z-3.5000 S1000
G1 F700 X179.7188 Y60.8906 Z-3.5000 S1000
G1 F700 X177.2813 Y60.8906 Z-3.5000 S1000
G1 F700 X177.0436 Y60.9293 Z-3.5000 S1000
G1 F700 X176.7510 Y61.1103 Z-3.5000 S1000
G1 F700 X176.6572 Y61.2041 Z-3.5000 S1000
G1 F700 X176.5164 Y61.3995 Z-3.5000 S1000
G1 F700 X176.4375 Y61.7344 Z-3.5000 S1000
G1 F700 X176.4375 Y71.5781 Z-3.5000 S1000
G1 F700 X176.4762 Y71.8158 Z-3.5000 S1000
G1 F700 X176.6572 Y72.1084 Z-3.5000 S1000
G1 F700 X176.7510 Y72.2022 Z-3.5000 S1000
G1 F700 X176.9464 Y72.3430 Z-3.5000 S1000
G1 F700 X177.2813 Y72.4219 Z-3.5000 S1000
G1 F700 X179.7188 Y72.4219 Z-3.5000 S1000
G1 F700 X179.7188 Y80.7188 Z-3.5000 S1000
G1 F700 X179.7575 Y80.9565 Z-3.5000 S1000
G1 F700 X179.9385 Y81.2491 Z-3.5000 S1000
G1 F700 X180.0322 Y81.3428 Z-3.5000 S1000
G1 F700 X180.2276 Y81.4836 Z-3.5000 S1000
G1 F700 X180.5625 Y81.5625 Z-3.5000 S1000
G1 F700 X191.1094 Y81.5625 Z-3.5000 S1000
G1 F700 X191.3471 Y81.5238 Z-3.5000 S1000
G1 F700 X191.6397 Y81.3428 Z-3.5000 S1000
G1 F700 X191.7334 Y81.2491 Z-3.5000 S1000
G1 F700 X191.8742 Y81.0537 Z-3.5000 S1000
G1 F700 X191.9531 Y80.7188 Z-3.5000 S1000
G1 F700 X191.9531 Y78.2812 Z-3.5000 S1000
G1 F700 X200.1094 Y78.2812 Z-3.5000 S1000
G1 F700 X200.1094 Y80.7188 Z-3.5000 S1000
G1 F700 X200.1481 Y80.9565 Z-3.5000 S1000
G1 F700 X200.3291 Y81.2491 Z-3.5000 S1000
G1 F700 X200.4228 Y81.3428 Z-3.5000 S1000
G1 F700 X200.6182 Y81.4836 Z-3.5000 S1000
G1 F700 X200.9531 Y81.5625 Z-3.5000 S1000
G1 F700 X211.5000 Y81.5625 Z-3.5000 S1000
G1 F700 X211.7373 Y81.5240 Z-3.5000 S1000
G1 F700 X212.0300 Y81.3431 Z-3.5000 S1000
G1 F700 X212.1238 Y81.2494 Z-3.5000 S1000
G1 F700 X212.2649 Y81.0537 Z-3.5000 S1000
G1 F700 X212.3438 Y80.7188 Z-3.5000 S1000
G1 F700 X212.3438 Y72.4219 Z-3.5000 S1000
G1 F700 X214.7813 Y72.4219 Z-3.5000 S1000
G1 F700 X215.0194 Y72.3831 Z-3.5000 S1000
G1 F700 X215.3119 Y72.2019 Z-3.5000 S1000
G1 F700 X215.4056 Y72.1081 Z-3.5000 S1000
G1 F700 X215.5461 Y71.9130 Z-3.5000 S1000
G1 F700 X215.6250 Y71.5781 Z-3.5000 S1000
G1 F700 X215.6250 Y61.7344 Z-3.5000 S1000
G1 F700 X215.5865 Y61.4971 Z-3.5000 S1000
G1 F700 X215.4056 Y61.2044 Z-3.5000 S1000
G1 F700 X215.3119 Y61.1106 Z-3.5000 S1000
G1 F700 X215.1162 Y60.9695 Z-3.5000 S1000
G1 F700 X214.7813 Y60.8906 Z-3.5000 S1000
G1 F700 X212.3438 Y60.8906 Z-3.5000 S1000
G1 F700 X212.3438 Y52.5938 Z-3.5000 S1000
G1 F700 X212.3051 Y52.3561 Z-3.5000 S1000
G1 F700 X212.1241 Y52.0635 Z-3.5000 S1000
G1 F700 X212.0303 Y51.9697 Z-3.5000 S1000
G1 F700 X211.8349 Y51.8289 Z-3.5000 S1000
G1 F700 X211.5000 Y51.7500 Z-3.5000 S1000
G1 F700 X200.9531 Y51.7500 Z-3.5000 S1000
G1 F700 X200.7150 Y51.7888 Z-3.5000 S1000
G1 F700 X200.4225 Y51.9700 Z-3.5000 S1000
G1 F700 X200.3288 Y52.0638 Z-3.5000 S1000
G1 F700 X200.1883 Y52.2589 Z-3.5000 S1000
G1 F700 X200.1094 Y52.5938 Z-3.5000 S1000
G1 F700 X200.1094 Y55.0313 Z-3.5000 S1000
G1 F700 X191.9531 Y55.0313 Z-3.5000 S1000
G1 F700 X191.9531 Y52.5938 Z-3.5000 S1000
G1 F700 X191.9146 Y52.3565 Z-3.5000 S1000
G1 F700 X191.7337 Y52.0638 Z-3.5000 S1000
G1 F700 X191.6400 Y51.9700 Z-3.5000 S1000
G1 F700 X191.4443 Y51.8289 Z-3.5000 S1000
G1 F700 X191.1094 Y51.7500 Z-3.5000 S1000

G0 Z10; move to z-safe height
G0 X197.2032 Y1.1250

G0 Z0
G1 F300 Z-2.0000
G1 F700 X187.3594 Y1.1250 Z-2.0000 S1000
G1 F700 X187.1217 Y1.1637 Z-2.0000 S1000
G1 F700 X186.8291 Y1.3447 Z-2.0000 S1000
G1 F700 X186.7353 Y1.4385 Z-2.0000 S1000
G1 F700 X186.5945 Y1.6339 Z-2.0000 S1000
G1 F700 X186.5156 Y1.9688 Z-2.0000 S1000
G1 F700 X186.5156 Y4.4062 Z-2.0000 S1000
G1 F700 X178.2188 Y4.4062 Z-2.0000 S1000
G1 F700 X177.9811 Y4.4449 Z-2.0000 S1000
G1 F700 X177.6885 Y4.6259 Z-2.0000 S1000
G1 F700 X177.5947 Y4.7197 Z-2.0000 S1000
G1 F700 X177.4539 Y4.9151 Z-2.0000 S1000
G1 F700 X177.3750 Y5.2500 Z-2.0000 S1000
G1 F700 X177.3750 Y15.7969 Z-2.0000 S1000
G1 F700 X177.4138 Y16.0350 Z-2.0000 S1000
G1 F700 X177.5950 Y16.3275 Z-2.0000 S1000
G1 F700 X177.6888 Y16.4212 Z-2.0000 S1000
G1 F700 X177.8839 Y16.5617 Z-2.0000 S1000
G1 F700 X178.2188 Y16.6406 Z-2.0000 S1000
G1 F700 X180.6563 Y16.6406 Z-2.0000 S1000
G1 F700 X180.6563 Y24.7969 Z-2.0000 S1000
G1 F700 X178.2188 Y24.7969 Z-2.0000 S1000
G1 F700 X177.9815 Y24.8354 Z-2.0000 S1000
G1 F700 X177.6888 Y25.0163 Z-2.0000 S1000
G1 F700 X177.5950 Y25.1100 Z-2.0000 S1000
G1 F700 X177.4539 Y25.3057 Z-2.0000 S1000
G1 F700 X177.3750 Y25.6406 Z-2.0000 S1000
G1 F700 X177.3750 Y36.1875 Z-2.0000 S1000
G1 F700 X177.4138 Y36.4256 Z-2.0000 S1000
G1 F700 X177.5950 Y36.7181 Z-2.0000 S1000
G1 F700 X177.6888 Y36.8118 Z-2.0000 S1000
G1 F700 X177.8839 Y36.9523 Z-2.0000 S1000
G1 F700 X178.2188 Y37.0312 Z-2.0000 S1000
G1 F700 X186.5156 Y37.0312 Z-2.0000 S1000
G1 F700 X186.5156 Y39.4688 Z-2.0000 S1000
G1 F700 X186.5544 Y39.7069 Z-2.0000 S1000
G1 F700 X186.7356 Y39.9994 Z-2.0000 S1000
G1 F700 X186.8294 Y40.0931 Z-2.0000 S1000
G1 F700 X187.0245 Y40.2336 Z-2.0000 S1000
G1 F700 X187.3594 Y40.3125 Z-2.0000 S1000
G1 F700 X197.2032 Y40.3125 Z-2.0000 S1000
G1 F700 X197.4409 Y40.2738 Z-2.0000 S1000
G1 F700 X197.7335 Y40.0928 Z-2.0000 S1000
G1 F700 X197.8272 Y39.9991 Z-2.0000 S1000
G1 F700 X197.9680 Y39.8037 Z-2.0000 S1000
G1 F700 X198.0469 Y39.4688 Z-2.0000 S1000
G1 F700 X198.0469 Y37.0312 Z-2.0000 S1000
G1 F700 X206.3438 Y37.0312 Z-2.0000 S1000
G1 F700 X206.5815 Y36.9925 Z-2.0000 S1000
G1 F700 X206.8741 Y36.8115 Z-2.0000 S1000
G1 F700 X206.9678 Y36.7178 Z-2.0000 S1000
G1 F700 X207.1086 Y36.5224 Z-2.0000 S1000
G1 F700 X207.1875 Y36.1875 Z-2.0000 S1000
G1 F700 X207.1875 Y25.6406 Z-2.0000 S1000
G1 F700 X207.1488 Y25.4029 Z-2.0000 S1000
G1 F700 X206.9678 Y25.1103 Z-2.0000 S1000
G1 F700 X206.8741 Y25.0166 Z-2.0000 S1000
G1 F700 X206.6787 Y24.8758 Z-2.0000 S1000
G1 F700 X206.3438 Y24.7969 Z-2.0000 S1000
G1 F700 X203.9063 Y24.7969 Z-2.0000 S1000
G1 F700 X203.9063 Y16.6406 Z-2.0000 S1000
G1 F700 X206.3438 Y16.6406 Z-2.0000 S1000
G1 F700 X206.5815 Y16.6019 Z-2.0000 S1000
G1 F700 X206.8741 Y16.4209 Z-2.0000 S1000
G1 F700 X206.9678 Y16.3272 Z-2.0000 S1000
G1 F700 X207.1086 Y16.1318 Z-2.0000 S1000
G1 F700 X207.1875 Y15.7969 Z-2.0000 S1000
G1 F700 X207.1875 Y5.2500 Z-2.0000 S1000
G1 F700 X207.1490 Y5.0127 Z-2.0000 S1000
G1 F700 X206.9681 Y4.7200 Z-2.0000 S1000
G1 F700 X206.8744 Y4.6262 Z-2.0000 S1000
G1 F700 X206.6787 Y4.4851 Z-2.0000 S1000
G1 F700 X206.3438 Y4.4062 Z-2.0000 S1000
G1 F700 X198.0469 Y4.4062 Z-2.0000 S1000
G1 F700 X198.0469 Y1.9688 Z-2.0000 S1000
G1 F700 X198.0084 Y1.7315 Z-2.0000 S1000
G1 F700 X197.8275 Y1.4388 Z-2.0000 S1000
G1 F700 X197.7338 Y1.3450 Z-2.0000 S1000
G1 F700 X197.5381 Y1.2039 Z-2.0000 S1000
G1 F700 X197.2032 Y1.1250 Z-2.0000 S1000
G1 F300 Z-3.5000
G1 F700 X187.3594 Y1.1250 Z-3.5000 S1000
G1 F700 X187.1217 Y1.1637 Z-3.5000 S1000
G1 F700 X186.8291 Y1.3447 Z-3.5000 S1000
G1 F700 X186.7353 Y1.4385 Z-3.5000 S1000
G1 F700 X186.5945 Y1.6339 Z-3.5000 S1000
G1 F700 X186.5156 Y1.9688 Z-3.5000 S1000
G1 F700 X186.5156 Y4.4062 Z-3.5000 S1000
G1 F700 X178.2188 Y4.4062 Z-3.5000 S1000
G1 F700 X177.9811 Y4.4449 Z-3.5000 S1000
G1 F700 X177.6885 Y4.6259 Z-3.5000 S1000
G1 F700 X177.5947 Y4.7197 Z-3.5000 S1000
G1 F700 X177.4539 Y4.9151 Z-3.5000 S1000
G1 F700 X177.3750 Y5.2500 Z-3.5000 S1000
G1 F700 X177.3750 Y15.7969 Z-3.5000 S1000
G1 F700 X177.4138 Y16.0350 Z-3.5000 S1000
G1 F700 X177.5950 Y16.3275 Z-3.5000 S1000
G1 F700 X177.6888 Y16.4212 Z-3.5000 S1000
G1 F700 X177.8839 Y16.5617 Z-3.5000 S1000
G1 F700 X178.2188 Y16.6406 Z-3.5000 S1000
G1 F700 X180.6563 Y16.6406 Z-3.5000 S1000
G1 F700 X180.6563 Y24.7969 Z-3.5000 S1000
G1 F700 X178.2188 Y24.7969 Z-3.5000 S1000
G1 F700 X177.9815 Y24.8354 Z-3.5000 S1000
G1 F700 X177.6888 Y25.0163 Z-3.5000 S1000
G1 F700 X177.5950 Y25.1100 Z-3.5000 S1000
G1 F700 X177.4539 Y25.3057 Z-3.5000 S1000
G1 F700 X177.3750 Y25.6406 Z-3.5000 S1000
G1 F700 X177.3750 Y36.1875 Z-3.5000 S1000
G1 F700 X177.4138 Y36.4256 Z-3.5000 S1000
G1 F700 X177.5950 Y36.7181 Z-3.5000 S1000
G1 F700 X177.6888 Y36.8118 Z-3.5000 S1000
G1 F700 X177.8839 Y36.9523 Z-3.5000 S1000
G1 F700 X178.2188 Y37.0312 Z-3.5000 S1000
G1 F700 X186.5156 Y37.0312 Z-3.5000 S1000
G1 F700 X186.5156 Y39.4688 Z-3.5000 S1000
G1 F700 X186.5544 Y39.7069 Z-3.5000 S1000
G1 F700 X186.7356 Y39.9994 Z-3.5000 S1000
G1 F700 X186.8294 Y40.0931 Z-3.5000 S1000
G1 F700 X187.0245 Y40.2336 Z-3.5000 S1000
G1 F700 X187.3594 Y40.3125 Z-3.5000 S1000
G1 F700 X197.2032 Y40.3125 Z-3.5000 S1000
G1 F700 X197.4409 Y40.2738 Z-3.5000 S1000
G1 F700 X197.7335 Y40.0928 Z-3.5000 S1000
G1 F700 X197.8272 Y39.9991 Z-3.5000 S1000
G1 F700 X197.9680 Y39.8037 Z-3.5000 S1000
G1 F700 X198.0469 Y39.4688 Z-3.5000 S1000
G1 F700 X198.0469 Y37.0312 Z-3.5000 S1000
G1 F700 X206.3438 Y37.0312 Z-3.5000 S1000
G1 F700 X206.5815 Y36.9925 Z-3.5000 S1000
G1 F700 X206.8741 Y36.8115 Z-3.5000 S1000
G1 F700 X206.9678 Y36.7178 Z-3.5000 S1000
G1 F700 X207.1086 Y36.5224 Z-3.5000 S1000
G1 F700 X207.1875 Y36.1875 Z-3.5000 S1000
G1 F700 X207.1875 Y25.6406 Z-3.5000 S1000
G1 F700 X207.1488 Y25.4029 Z-3.5000 S1000
G1 F700 X206.9678 Y25.1103 Z-3.5000 S1000
G1 F700 X206.8741 Y25.0166 Z-3.5000 S1000
G1 F700 X206.6787 Y24.8758 Z-3.5000 S1000
G1 F700 X206.3438 Y24.7969 Z-3.5000 S1000
G1 F700 X203.9063 Y24.7969 Z-3.5000 S1000
G1 F700 X203.9063 Y16.6406 Z-3.5000 S1000
G1 F700 X206.3438 Y16.6406 Z-3.5000 S1000
G1 F700 X206.5815 Y16.6019 Z-3.5000 S1000
G1 F700 X206.8741 Y16.4209 Z-3.5000 S1000
G1 F700 X206.9678 Y16.3272 Z-3.5000 S1000
G1 F700 X207.1086 Y16.1318 Z-3.5000 S1000
G1 F700 X207.1875 Y15.7969 Z-3.5000 S1000
G1 F700 X207.1875 Y5.2500 Z-3.5000 S1000
G1 F700 X207.1490 Y5.0127 Z-3.5000 S1000
G1 F700 X206.9681 Y4.7200 Z-3.5000 S1000
G1 F700 X206.8744 Y4.6262 Z-3.5000 S1000
G1 F700 X206.6787 Y4.4851 Z-3.5000 S1000
G1 F700 X206.3438 Y4.4062 Z-3.5000 S1000
G1 F700 X198.0469 Y4.4062 Z-3.5000 S1000
G1 F700 X198.0469 Y1.9688 Z-3.5000 S1000
G1 F700 X198.0084 Y1.7315 Z-3.5000 S1000
G1 F700 X197.8275 Y1.4388 Z-3.5000 S1000
G1 F700 X197.7338 Y1.3450 Z-3.5000 S1000
G1 F700 X197.5381 Y1.2039 Z-3.5000 S1000
G1 F700 X197.2032 Y1.1250 Z-3.5000 S1000

G0 Z10; move to z-safe height
G0 X249.4688 Y336.8437

G0 Z0
G1 F300 Z-2.0000
G1 F700 X174.4688 Y336.8437 Z-2.0000 S1000
G1 F700 X174.0179 Y336.9944 Z-2.0000 S1000
G1 F700 X173.7977 Y337.2588 Z-2.0000 S1000
G1 F700 X173.7188 Y337.5937 Z-2.0000 S1000
G1 F700 X173.7188 Y352.5937 Z-2.0000 S1000
G1 F700 X173.8695 Y353.0446 Z-2.0000 S1000
G1 F700 X174.1339 Y353.2648 Z-2.0000 S1000
G1 F700 X174.4688 Y353.3437 Z-2.0000 S1000
G1 F700 X249.4688 Y353.3437 Z-2.0000 S1000
G1 F700 X249.9197 Y353.1930 Z-2.0000 S1000
G1 F700 X250.1399 Y352.9286 Z-2.0000 S1000
G1 F700 X250.2188 Y352.5937 Z-2.0000 S1000
G1 F700 X250.2188 Y337.5937 Z-2.0000 S1000
G1 F700 X250.0681 Y337.1428 Z-2.0000 S1000
G1 F700 X249.8037 Y336.9226 Z-2.0000 S1000
G1 F700 X249.4688 Y336.8437 Z-2.0000 S1000
G1 F300 Z-3.5000
G1 F700 X174.4688 Y336.8437 Z-3.5000 S1000
G1 F700 X174.0179 Y336.9944 Z-3.5000 S1000
G1 F700 X173.7977 Y337.2588 Z-3.5000 S1000
G1 F700 X173.7188 Y337.5937 Z-3.5000 S1000
G1 F700 X173.7188 Y352.5937 Z-3.5000 S1000
G1 F700 X173.8695 Y353.0446 Z-3.5000 S1000
G1 F700 X174.1339 Y353.2648 Z-3.5000 S1000
G1 F700 X174.4688 Y353.3437 Z-3.5000 S1000
G1 F700 X249.4688 Y353.3437 Z-3.5000 S1000
G1 F700 X249.9197 Y353.1930 Z-3.5000 S1000
G1 F700 X250.1399 Y352.9286 Z-3.5000 S1000
G1 F700 X250.2188 Y352.5937 Z-3.5000 S1000
G1 F700 X250.2188 Y337.5937 Z-3.5000 S1000
G1 F700 X250.0681 Y337.1428 Z-3.5000 S1000
G1 F700 X249.8037 Y336.9226 Z-3.5000 S1000
G1 F700 X249.4688 Y336.8437 Z-3.5000 S1000

G0 Z10; move to z-safe height
G0 X250.4063 Y316.2187

G0 Z0
G1 F300 Z-2.0000
G1 F700 X175.4063 Y316.2187 Z-2.0000 S1000
G1 F700 X174.9554 Y316.3694 Z-2.0000 S1000
G1 F700 X174.7352 Y316.6338 Z-2.0000 S1000
G1 F700 X174.6563 Y316.9687 Z-2.0000 S1000
G1 F700 X174.6563 Y331.9687 Z-2.0000 S1000
G1 F700 X174.8070 Y332.4196 Z-2.0000 S1000
G1 F700 X175.0714 Y332.6398 Z-2.0000 S1000
G1 F700 X175.4063 Y332.7187 Z-2.0000 S1000
G1 F700 X250.4063 Y332.7187 Z-2.0000 S1000
G1 F700 X250.8572 Y332.5680 Z-2.0000 S1000
G1 F700 X251.0774 Y332.3036 Z-2.0000 S1000
G1 F700 X251.1563 Y331.9687 Z-2.0000 S1000
G1 F700 X251.1563 Y316.9687 Z-2.0000 S1000
G1 F700 X251.0056 Y316.5178 Z-2.0000 S1000
G1 F700 X250.7412 Y316.2976 Z-2.0000 S1000
G1 F700 X250.4063 Y316.2187 Z-2.0000 S1000
G1 F300 Z-3.5000
G1 F700 X175.4063 Y316.2187 Z-3.5000 S1000
G1 F700 X174.9554 Y316.3694 Z-3.5000 S1000
G1 F700 X174.7352 Y316.6338 Z-3.5000 S1000
G1 F700 X174.6563 Y316.9687 Z-3.5000 S1000
G1 F700 X174.6563 Y331.9687 Z-3.5000 S1000
G1 F700 X174.8070 Y332.4196 Z-3.5000 S1000
G1 F700 X175.0714 Y332.6398 Z-3.5000 S1000
G1 F700 X175.4063 Y332.7187 Z-3.5000 S1000
G1 F700 X250.4063 Y332.7187 Z-3.5000 S1000
G1 F700 X250.8572 Y332.5680 Z-3.5000 S1000
G1 F700 X251.0774 Y332.3036 Z-3.5000 S1000
G1 F700 X251.1563 Y331.9687 Z-3.5000 S1000
G1 F700 X251.1563 Y316.9687 Z-3.5000 S1000
G1 F700 X251.0056 Y316.5178 Z-3.5000 S1000
G1 F700 X250.7412 Y316.2976 Z-3.5000 S1000
G1 F700 X250.4063 Y316.2187 Z-3.5000 S1000

G0 Z10; move to z-safe height
G0 X250.4063 Y356.5312

G0 Z0
G1 F300 Z-2.0000
G1 F700 X175.4063 Y356.5312 Z-2.0000 S1000
G1 F700 X174.9554 Y356.6819 Z-2.0000 S1000
G1 F700 X174.7352 Y356.9463 Z-2.0000 S1000
G1 F700 X174.6563 Y357.2812 Z-2.0000 S1000
G1 F700 X174.6563 Y372.2812 Z-2.0000 S1000
G1 F700 X174.8070 Y372.7321 Z-2.0000 S1000
G1 F700 X175.0714 Y372.9523 Z-2.0000 S1000
G1 F700 X175.4063 Y373.0312 Z-2.0000 S1000
G1 F700 X250.4063 Y373.0312 Z-2.0000 S1000
G1 F700 X250.8572 Y372.8805 Z-2.0000 S1000
G1 F700 X251.0774 Y372.6161 Z-2.0000 S1000
G1 F700 X251.1563 Y372.2812 Z-2.0000 S1000
G1 F700 X251.1563 Y357.2812 Z-2.0000 S1000
G1 F700 X251.0056 Y356.8303 Z-2.0000 S1000
G1 F700 X250.7412 Y356.6101 Z-2.0000 S1000
G1 F700 X250.4063 Y356.5312 Z-2.0000 S1000
G1 F300 Z-3.5000
G1 F700 X175.4063 Y356.5312 Z-3.5000 S1000
G1 F700 X174.9554 Y356.6819 Z-3.5000 S1000
G1 F700 X174.7352 Y356.9463 Z-3.5000 S1000
G1 F700 X174.6563 Y357.2812 Z-3.5000 S1000
G1 F700 X174.6563 Y372.2812 Z-3.5000 S1000
G1 F700 X174.8070 Y372.7321 Z-3.5000 S1000
G1 F700 X175.0714 Y372.9523 Z-3.5000 S1000
G1 F700 X175.4063 Y373.0312 Z-3.5000 S1000
G1 F700 X250.4063 Y373.0312 Z-3.5000 S1000
G1 F700 X250.8572 Y372.8805 Z-3.5000 S1000
G1 F700 X251.0774 Y372.6161 Z-3.5000 S1000
G1 F700 X251.1563 Y372.2812 Z-3.5000 S1000
G1 F700 X251.1563 Y357.2812 Z-3.5000 S1000
G1 F700 X251.0056 Y356.8303 Z-3.5000 S1000
G1 F700 X250.7412 Y356.6101 Z-3.5000 S1000
G1 F700 X250.4063 Y356.5312 Z-3.5000 S1000

G0 Z10; move to z-safe height
G0 X236.3438 Y1.2187

G0 Z0
G1 F300 Z-2.0000
G1 F700 X221.3438 Y1.2187 Z-2.0000 S1000
G1 F700 X220.8929 Y1.3694 Z-2.0000 S1000
G1 F700 X220.6727 Y1.6338 Z-2.0000 S1000
G1 F700 X220.5938 Y1.9687 Z-2.0000 S1000
G1 F700 X220.5938 Y76.9687 Z-2.0000 S1000
G1 F700 X220.7445 Y77.4196 Z-2.0000 S1000
G1 F700 X221.0089 Y77.6398 Z-2.0000 S1000
G1 F700 X221.3438 Y77.7187 Z-2.0000 S1000
G1 F700 X236.3438 Y77.7187 Z-2.0000 S1000
G1 F700 X236.7947 Y77.5680 Z-2.0000 S1000
G1 F700 X237.0149 Y77.3036 Z-2.0000 S1000
G1 F700 X237.0938 Y76.9687 Z-2.0000 S1000
G1 F700 X237.0938 Y1.9687 Z-2.0000 S1000
G1 F700 X236.9431 Y1.5178 Z-2.0000 S1000
G1 F700 X236.6787 Y1.2976 Z-2.0000 S1000
G1 F700 X236.3438 Y1.2187 Z-2.0000 S1000
G1 F300 Z-3.5000
G1 F700 X221.3438 Y1.2187 Z-3.5000 S1000
G1 F700 X220.8929 Y1.3694 Z-3.5000 S1000
G1 F700 X220.6727 Y1.6338 Z-3.5000 S1000
G1 F700 X220.5938 Y1.9687 Z-3.5000 S1000
G1 F700 X220.5938 Y76.9687 Z-3.5000 S1000
G1 F700 X220.7445 Y77.4196 Z-3.5000 S1000
G1 F700 X221.0089 Y77.6398 Z-3.5000 S1000
G1 F700 X221.3438 Y77.7187 Z-3.5000 S1000
G1 F700 X236.3438 Y77.7187 Z-3.5000 S1000
G1 F700 X236.7947 Y77.5680 Z-3.5000 S1000
G1 F700 X237.0149 Y77.3036 Z-3.5000 S1000
G1 F700 X237.0938 Y76.9687 Z-3.5000 S1000
G1 F700 X237.0938 Y1.9687 Z-3.5000 S1000
G1 F700 X236.9431 Y1.5178 Z-3.5000 S1000
G1 F700 X236.6787 Y1.2976 Z-3.5000 S1000
G1 F700 X236.3438 Y1.2187 Z-3.5000 S1000

G0 Z10; move to z-safe height
G0 X249.4688 Y295.5937

G0 Z0
G1 F300 Z-2.0000
G1 F700 X174.4688 Y295.5937 Z-2.0000 S1000
G1 F700 X174.0179 Y295.7444 Z-2.0000 S1000
G1 F700 X173.7977 Y296.0088 Z-2.0000 S1000
G1 F700 X173.7188 Y296.3437 Z-2.0000 S1000
G1 F700 X173.7188 Y311.3437 Z-2.0000 S1000
G1 F700 X173.8695 Y311.7946 Z-2.0000 S1000
G1 F700 X174.1339 Y312.0148 Z-2.0000 S1000
G1 F700 X174.4688 Y312.0937 Z-2.0000 S1000
G1 F700 X249.4688 Y312.0937 Z-2.0000 S1000
G1 F700 X249.9197 Y311.9430 Z-2.0000 S1000
G1 F700 X250.1399 Y311.6786 Z-2.0000 S1000
G1 F700 X250.2188 Y311.3437 Z-2.0000 S1000
G1 F700 X250.2188 Y296.3437 Z-2.0000 S1000
G1 F700 X250.0681 Y295.8928 Z-2.0000 S1000
G1 F700 X249.8037 Y295.6726 Z-2.0000 S1000
G1 F700 X249.4688 Y295.5937 Z-2.0000 S1000
G1 F300 Z-3.5000
G1 F700 X174.4688 Y295.5937 Z-3.5000 S1000
G1 F700 X174.0179 Y295.7444 Z-3.5000 S1000
G1 F700 X173.7977 Y296.0088 Z-3.5000 S1000
G1 F700 X173.7188 Y296.3437 Z-3.5000 S1000
G1 F700 X173.7188 Y311.3437 Z-3.5000 S1000
G1 F700 X173.8695 Y311.7946 Z-3.5000 S1000
G1 F700 X174.1339 Y312.0148 Z-3.5000 S1000
G1 F700 X174.4688 Y312.0937 Z-3.5000 S1000
G1 F700 X249.4688 Y312.0937 Z-3.5000 S1000
G1 F700 X249.9197 Y311.9430 Z-3.5000 S1000
G1 F700 X250.1399 Y311.6786 Z-3.5000 S1000
G1 F700 X250.2188 Y311.3437 Z-3.5000 S1000
G1 F700 X250.2188 Y296.3437 Z-3.5000 S1000
G1 F700 X250.0681 Y295.8928 Z-3.5000 S1000
G1 F700 X249.8037 Y295.6726 Z-3.5000 S1000
G1 F700 X249.4688 Y295.5937 Z-3.5000 S1000

G0 Z10; move to z-safe height
G0 X249.4688 Y375.2812

G0 Z0
G1 F300 Z-2.0000
G1 F700 X174.4688 Y375.2812 Z-2.0000 S1000
G1 F700 X174.0179 Y375.4319 Z-2.0000 S1000
G1 F700 X173.7977 Y375.6963 Z-2.0000 S1000
G1 F700 X173.7188 Y376.0312 Z-2.0000 S1000
G1 F700 X173.7188 Y391.0312 Z-2.0000 S1000
G1 F700 X173.8695 Y391.4821 Z-2.0000 S1000
G1 F700 X174.1339 Y391.7023 Z-2.0000 S1000
G1 F700 X174.4688 Y391.7812 Z-2.0000 S1000
G1 F700 X249.4688 Y391.7812 Z-2.0000 S1000
G1 F700 X249.9197 Y391.6305 Z-2.0000 S1000
G1 F700 X250.1399 Y391.3661 Z-2.0000 S1000
G1 F700 X250.2188 Y391.0312 Z-2.0000 S1000
G1 F700 X250.2188 Y376.0312 Z-2.0000 S1000
G1 F700 X250.0681 Y375.5803 Z-2.0000 S1000
G1 F700 X249.8037 Y375.3601 Z-2.0000 S1000
G1 F700 X249.4688 Y375.2812 Z-2.0000 S1000
G1 F300 Z-3.5000
G1 F700 X174.4688 Y375.2812 Z-3.5000 S1000
G1 F700 X174.0179 Y375.4319 Z-3.5000 S1000
G1 F700 X173.7977 Y375.6963 Z-3.5000 S1000
G1 F700 X173.7188 Y376.0312 Z-3.5000 S1000
G1 F700 X173.7188 Y391.0312 Z-3.5000 S1000
G1 F700 X173.8695 Y391.4821 Z-3.5000 S1000
G1 F700 X174.1339 Y391.7023 Z-3.5000 S1000
G1 F700 X174.4688 Y391.7812 Z-3.5000 S1000
G1 F700 X249.4688 Y391.7812 Z-3.5000 S1000
G1 F700 X249.9197 Y391.6305 Z-3.5000 S1000
G1 F700 X250.1399 Y391.3661 Z-3.5000 S1000
G1 F700 X250.2188 Y391.0312 Z-3.5000 S1000
G1 F700 X250.2188 Y376.0312 Z-3.5000 S1000
G1 F700 X250.0681 Y375.5803 Z-3.5000 S1000
G1 F700 X249.8037 Y375.3601 Z-3.5000 S1000
G1 F700 X249.4688 Y375.2812 Z-3.5000 S1000

G0 Z10; move to z-safe height
G0 X253.2079 Y193.4063

G0 Z0
G1 F300 Z-2.0000
G1 F700 X187.5898 Y194.3628 Z-2.0000 S1000
G1 F700 X178.2188 Y194.3628 Z-2.0000 S1000
G1 F700 X177.8474 Y194.4612 Z-2.0000 S1000
G1 F700 X177.5955 Y194.6956 Z-2.0000 S1000
G1 F700 X177.4748 Y195.0178 Z-2.0000 S1000
G1 F700 X177.5107 Y195.3600 Z-2.0000 S1000
G1 F700 X178.7928 Y199.0318 Z-2.0000 S1000
G1 F700 X179.1087 Y199.4239 Z-2.0000 S1000
G1 F700 X179.4355 Y199.5317 Z-2.0000 S1000
G1 F700 X179.7760 Y199.4823 Z-2.0000 S1000
G1 F700 X180.0586 Y199.2860 Z-2.0000 S1000
G1 F700 X180.2238 Y198.9842 Z-2.0000 S1000
G1 F700 X180.2369 Y198.6404 Z-2.0000 S1000
G1 F700 X196.2328 Y288.0505 Z-2.0000 S1000
G1 F700 X196.3695 Y288.3571 Z-2.0000 S1000
G1 F700 X196.6339 Y288.5773 Z-2.0000 S1000
G1 F700 X196.9688 Y288.6562 Z-2.0000 S1000
G1 F700 X235.4063 Y288.6562 Z-2.0000 S1000
G1 F700 X235.7374 Y288.5792 Z-2.0000 S1000
G1 F700 X236.0031 Y288.3605 Z-2.0000 S1000
G1 F700 X236.1431 Y288.0462 Z-2.0000 S1000
G1 F700 X253.9556 Y194.2962 Z-2.0000 S1000
G1 F700 X253.9543 Y194.0097 Z-2.0000 S1000
G1 F700 X253.8115 Y193.6966 Z-2.0000 S1000
G1 F700 X253.5439 Y193.4803 Z-2.0000 S1000
G1 F700 X253.2079 Y193.4063 Z-2.0000 S1000
G1 F300 Z-3.5000
G1 F700 X187.5898 Y194.3628 Z-3.5000 S1000
G1 F700 X178.2188 Y194.3628 Z-3.5000 S1000
G1 F700 X177.8474 Y194.4612 Z-3.5000 S1000
G1 F700 X177.5955 Y194.6956 Z-3.5000 S1000
G1 F700 X177.4748 Y195.0178 Z-3.5000 S1000
G1 F700 X177.5107 Y195.3600 Z-3.5000 S1000
G1 F700 X178.7928 Y199.0318 Z-3.5000 S1000
G1 F700 X179.1087 Y199.4239 Z-3.5000 S1000
G1 F700 X179.4355 Y199.5317 Z-3.5000 S1000
G1 F700 X179.7760 Y199.4823 Z-3.5000 S1000
G1 F700 X180.0586 Y199.2860 Z-3.5000 S1000
G1 F700 X180.2238 Y198.9842 Z-3.5000 S1000
G1 F700 X180.2369 Y198.6404 Z-3.5000 S1000
G1 F700 X196.2328 Y288.0505 Z-3.5000 S1000
G1 F700 X196.3695 Y288.3571 Z-3.5000 S1000
G1 F700 X196.6339 Y288.5773 Z-3.5000 S1000
G1 F700 X196.9688 Y288.6562 Z-3.5000 S1000
G1 F700 X235.4063 Y288.6562 Z-3.5000 S1000
G1 F700 X235.7374 Y288.5792 Z-3.5000 S1000
G1 F700 X236.0031 Y288.3605 Z-3.5000 S1000
G1 F700 X236.1431 Y288.0462 Z-3.5000 S1000
G1 F700 X253.9556 Y194.2962 Z-3.5000 S1000
G1 F700 X253.9543 Y194.0097 Z-3.5000 S1000
G1 F700 X253.8115 Y193.6966 Z-3.5000 S1000
G1 F700 X253.5439 Y193.4803 Z-3.5000 S1000
G1 F700 X253.2079 Y193.4063 Z-3.5000 S1000

G0 Z10; move to z-safe height
G0 X247.5829 Y88.4063

G0 Z0
G1 F300 Z-2.0000
G1 F700 X181.9648 Y89.3628 Z-2.0000 S1000
G1 F700 X172.5938 Y89.3628 Z-2.0000 S1000
G1 F700 X172.2224 Y89.4612 Z-2.0000 S1000
G1 F700 X171.9705 Y89.6956 Z-2.0000 S1000
G1 F700 X171.8498 Y90.0178 Z-2.0000 S1000
G1 F700 X171.8857 Y90.3600 Z-2.0000 S1000
G1 F700 X173.1678 Y94.0318 Z-2.0000 S1000
G1 F700 X173.4837 Y94.4239 Z-2.0000 S1000
G1 F700 X173.8105 Y94.5317 Z-2.0000 S1000
G1 F700 X174.1510 Y94.4823 Z-2.0000 S1000
G1 F700 X174.4336 Y94.2860 Z-2.0000 S1000
G1 F700 X174.5988 Y93.9842 Z-2.0000 S1000
G1 F700 X174.6119 Y93.6404 Z-2.0000 S1000
G1 F700 X190.6078 Y183.0505 Z-2.0000 S1000
G1 F700 X190.7445 Y183.3571 Z-2.0000 S1000
G1 F700 X191.0089 Y183.5773 Z-2.0000 S1000
G1 F700 X191.3438 Y183.6562 Z-2.0000 S1000
G1 F700 X229.7813 Y183.6562 Z-2.0000 S1000
G1 F700 X230.1124 Y183.5792 Z-2.0000 S1000
G1 F700 X230.3781 Y183.3605 Z-2.0000 S1000
G1 F700 X230.5181 Y183.0462 Z-2.0000 S1000
G1 F700 X248.3306 Y89.2962 Z-2.0000 S1000
G1 F700 X248.3293 Y89.0097 Z-2.0000 S1000
G1 F700 X248.1865 Y88.6966 Z-2.0000 S1000
G1 F700 X247.9189 Y88.4803 Z-2.0000 S1000
G1 F700 X247.5829 Y88.4063 Z-2.0000 S1000
G1 F300 Z-3.5000
G1 F700 X181.9648 Y89.3628 Z-3.5000 S1000
G1 F700 X172.5938 Y89.3628 Z-3.5000 S1000
G1 F700 X172.2224 Y89.4612 Z-3.5000 S1000
G1 F700 X171.9705 Y89.6956 Z-3.5000 S1000
G1 F700 X171.8498 Y90.0178 Z-3.5000 S1000
G1 F700 X171.8857 Y90.3600 Z-3.5000 S1000
G1 F700 X173.1678 Y94.0318 Z-3.5000 S1000
G1 F700 X173.4837 Y94.4239 Z-3.5000 S1000
G1 F700 X173.8105 Y94.5317 Z-3.5000 S1000
G1 F700 X174.1510 Y94.4823 Z-3.5000 S1000
G1 F700 X174.4336 Y94.2860 Z-3.5000 S1000
G1 F700 X174.5988 Y93.9842 Z-3.5000 S1000
G1 F700 X174.6119 Y93.6404 Z-3.5000 S1000
G1 F700 X190.6078 Y183.0505 Z-3.5000 S1000
G1 F700 X190.7445 Y183.3571 Z-3.5000 S1000
G1 F700 X191.0089 Y183.5773 Z-3.5000 S1000
G1 F700 X191.3438 Y183.6562 Z-3.5000 S1000
G1 F700 X229.7813 Y183.6562 Z-3.5000 S1000
G1 F700 X230.1124 Y183.5792 Z-3.5000 S1000
G1 F700 X230.3781 Y183.3605 Z-3.5000 S1000
G1 F700 X230.5181 Y183.0462 Z-3.5000 S1000
G1 F700 X248.3306 Y89.2962 Z-3.5000 S1000
G1 F700 X248.3293 Y89.0097 Z-3.5000 S1000
G1 F700 X248.1865 Y88.6966 Z-3.5000 S1000
G1 F700 X247.9189 Y88.4803 Z-3.5000 S1000
G1 F700 X247.5829 Y88.4063 Z-3.5000 S1000

G0 Z10; move to z-safe height
G0 X98.2969 Y-0.7500

G0 Z0
G1 F300 Z-2.0000
G1 F700 X89.1563 Y-0.7500 Z-2.0000 S1000
G1 F700 X88.9186 Y-0.7113 Z-2.0000 S1000
G1 F700 X88.6260 Y-0.5303 Z-2.0000 S1000
G1 F700 X88.5322 Y-0.4365 Z-2.0000 S1000
G1 F700 X88.3914 Y-0.2411 Z-2.0000 S1000
G1 F700 X88.3125 Y0.0938 Z-2.0000 S1000
G1 F700 X88.3125 Y14.8594 Z-2.0000 S1000
G1 F700 X88.3513 Y15.0975 Z-2.0000 S1000
G1 F700 X88.5325 Y15.3900 Z-2.0000 S1000
G1 F700 X88.6263 Y15.4837 Z-2.0000 S1000
G1 F700 X88.8214 Y15.6242 Z-2.0000 S1000
G1 F700 X89.1563 Y15.7031 Z-2.0000 S1000
G1 F700 X91.5938 Y15.7031 Z-2.0000 S1000
G1 F700 X91.5938 Y23.8594 Z-2.0000 S1000
G1 F700 X89.1563 Y23.8594 Z-2.0000 S1000
G1 F700 X88.9190 Y23.8979 Z-2.0000 S1000
G1 F700 X88.6263 Y24.0788 Z-2.0000 S1000
G1 F700 X88.5325 Y24.1725 Z-2.0000 S1000
G1 F700 X88.3914 Y24.3682 Z-2.0000 S1000
G1 F700 X88.3125 Y24.7031 Z-2.0000 S1000
G1 F700 X88.3125 Y34.5469 Z-2.0000 S1000
G1 F700 X88.3513 Y34.7850 Z-2.0000 S1000
G1 F700 X88.5325 Y35.0775 Z-2.0000 S1000
G1 F700 X88.6263 Y35.1712 Z-2.0000 S1000
G1 F700 X88.8214 Y35.3117 Z-2.0000 S1000
G1 F700 X89.1563 Y35.3906 Z-2.0000 S1000
G1 F700 X91.5938 Y35.3906 Z-2.0000 S1000
G1 F700 X91.5938 Y43.5469 Z-2.0000 S1000
G1 F700 X89.1563 Y43.5469 Z-2.0000 S1000
G1 F700 X88.9190 Y43.5854 Z-2.0000 S1000
G1 F700 X88.6263 Y43.7663 Z-2.0000 S1000
G1 F700 X88.5325 Y43.8600 Z-2.0000 S1000
G1 F700 X88.3914 Y44.0557 Z-2.0000 S1000
G1 F700 X88.3125 Y44.3906 Z-2.0000 S1000
G1 F700 X88.3125 Y54.2344 Z-2.0000 S1000
G1 F700 X88.3513 Y54.4725 Z-2.0000 S1000
G1 F700 X88.5325 Y54.7650 Z-2.0000 S1000
G1 F700 X88.6263 Y54.8587 Z-2.0000 S1000
G1 F700 X88.8214 Y54.9992 Z-2.0000 S1000
G1 F700 X89.1563 Y55.0781 Z-2.0000 S1000
G1 F700 X91.5938 Y55.0781 Z-2.0000 S1000
G1 F700 X91.5938 Y63.2344 Z-2.0000 S1000
G1 F700 X89.1563 Y63.2344 Z-2.0000 S1000
G1 F700 X88.9190 Y63.2729 Z-2.0000 S1000
G1 F700 X88.6263 Y63.4538 Z-2.0000 S1000
G1 F700 X88.5325 Y63.5475 Z-2.0000 S1000
G1 F700 X88.3914 Y63.7432 Z-2.0000 S1000
G1 F700 X88.3125 Y64.0781 Z-2.0000 S1000
G1 F700 X88.3125 Y73.9219 Z-2.0000 S1000
G1 F700 X88.3513 Y74.1600 Z-2.0000 S1000
G1 F700 X88.5325 Y74.4525 Z-2.0000 S1000
G1 F700 X88.6263 Y74.5462 Z-2.0000 S1000
G1 F700 X88.8214 Y74.6867 Z-2.0000 S1000
G1 F700 X89.1563 Y74.7656 Z-2.0000 S1000
G1 F700 X91.5938 Y74.7656 Z-2.0000 S1000
G1 F700 X91.5938 Y82.9219 Z-2.0000 S1000
G1 F700 X89.1563 Y82.9219 Z-2.0000 S1000
G1 F700 X88.9190 Y82.9604 Z-2.0000 S1000
G1 F700 X88.6263 Y83.1413 Z-2.0000 S1000
G1 F700 X88.5325 Y83.2350 Z-2.0000 S1000
G1 F700 X88.3914 Y83.4307 Z-2.0000 S1000
G1 F700 X88.3125 Y83.7656 Z-2.0000 S1000
G1 F700 X88.3125 Y93.6094 Z-2.0000 S1000
G1 F700 X88.3513 Y93.8475 Z-2.0000 S1000
G1 F700 X88.5325 Y94.1400 Z-2.0000 S1000
G1 F700 X88.6263 Y94.2337 Z-2.0000 S1000
G1 F700 X88.8214 Y94.3742 Z-2.0000 S1000
G1 F700 X89.1563 Y94.4531 Z-2.0000 S1000
G1 F700 X91.5938 Y94.4531 Z-2.0000 S1000
G1 F700 X91.5938 Y102.6094 Z-2.0000 S1000
G1 F700 X89.1563 Y102.6094 Z-2.0000 S1000
G1 F700 X88.9190 Y102.6479 Z-2.0000 S1000
G1 F700 X88.6263 Y102.8288 Z-2.0000 S1000
G1 F700 X88.5325 Y102.9225 Z-2.0000 S1000
G1 F700 X88.3914 Y103.1182 Z-2.0000 S1000
G1 F700 X88.3125 Y103.4531 Z-2.0000 S1000
G1 F700 X88.3125 Y113.2969 Z-2.0000 S1000
G1 F700 X88.3513 Y113.5350 Z-2.0000 S1000
G1 F700 X88.5325 Y113.8275 Z-2.0000 S1000
G1 F700 X88.6263 Y113.9212 Z-2.0000 S1000
G1 F700 X88.8214 Y114.0617 Z-2.0000 S1000
G1 F700 X89.1563 Y114.1406 Z-2.0000 S1000
G1 F700 X91.5938 Y114.1406 Z-2.0000 S1000
G1 F700 X91.5938 Y122.2969 Z-2.0000 S1000
G1 F700 X89.1563 Y122.2969 Z-2.0000 S1000
G1 F700 X88.9190 Y122.3354 Z-2.0000 S1000
G1 F700 X88.6263 Y122.5163 Z-2.0000 S1000
G1 F700 X88.5325 Y122.6100 Z-2.0000 S1000
G1 F700 X88.3914 Y122.8057 Z-2.0000 S1000
G1 F700 X88.3125 Y123.1406 Z-2.0000 S1000
G1 F700 X88.3125 Y132.9844 Z-2.0000 S1000
G1 F700 X88.3513 Y133.2225 Z-2.0000 S1000
G1 F700 X88.5325 Y133.5150 Z-2.0000 S1000
G1 F700 X88.6263 Y133.6087 Z-2.0000 S1000
G1 F700 X88.8214 Y133.7492 Z-2.0000 S1000
G1 F700 X89.1563 Y133.8281 Z-2.0000 S1000
G1 F700 X91.5938 Y133.8281 Z-2.0000 S1000
G1 F700 X91.5938 Y141.9844 Z-2.0000 S1000
G1 F700 X89.1563 Y141.9844 Z-2.0000 S1000
G1 F700 X88.9190 Y142.0229 Z-2.0000 S1000
G1 F700 X88.6263 Y142.2038 Z-2.0000 S1000
G1 F700 X88.5325 Y142.2975 Z-2.0000 S1000
G1 F700 X88.3914 Y142.4932 Z-2.0000 S1000
G1 F700 X88.3125 Y142.8281 Z-2.0000 S1000
G1 F700 X88.3125 Y152.6719 Z-2.0000 S1000
G1 F700 X88.3513 Y152.9100 Z-2.0000 S1000
G1 F700 X88.5325 Y153.2025 Z-2.0000 S1000
G1 F700 X88.6263 Y153.2962 Z-2.0000 S1000
G1 F700 X88.8214 Y153.4367 Z-2.0000 S1000
G1 F700 X89.1563 Y153.5156 Z-2.0000 S1000
G1 F700 X91.5938 Y153.5156 Z-2.0000 S1000
G1 F700 X91.5938 Y161.6719 Z-2.0000 S1000
G1 F700 X89.1563 Y161.6719 Z-2.0000 S1000
G1 F700 X88.9190 Y161.7104 Z-2.0000 S1000
G1 F700 X88.6263 Y161.8913 Z-2.0000 S1000
G1 F700 X88.5325 Y161.9850 Z-2.0000 S1000
G1 F700 X88.3914 Y162.1807 Z-2.0000 S1000
G1 F700 X88.3125 Y162.5156 Z-2.0000 S1000
G1 F700 X88.3125 Y172.3594 Z-2.0000 S1000
G1 F700 X88.3513 Y172.5975 Z-2.0000 S1000
G1 F700 X88.5325 Y172.8900 Z-2.0000 S1000
G1 F700 X88.6263 Y172.9837 Z-2.0000 S1000
G1 F700 X88.8214 Y173.1242 Z-2.0000 S1000
G1 F700 X89.1563 Y173.2031 Z-2.0000 S1000
G1 F700 X91.5938 Y173.2031 Z-2.0000 S1000
G1 F700 X91.5938 Y181.3594 Z-2.0000 S1000
G1 F700 X89.1563 Y181.3594 Z-2.0000 S1000
G1 F700 X88.9190 Y181.3979 Z-2.0000 S1000
G1 F700 X88.6263 Y181.5788 Z-2.0000 S1000
G1 F700 X88.5325 Y181.6725 Z-2.0000 S1000
G1 F700 X88.3914 Y181.8682 Z-2.0000 S1000
G1 F700 X88.3125 Y182.2031 Z-2.0000 S1000
G1 F700 X88.3125 Y192.0469 Z-2.0000 S1000
G1 F700 X88.3513 Y192.2850 Z-2.0000 S1000
G1 F700 X88.5325 Y192.5775 Z-2.0000 S1000
G1 F700 X88.6263 Y192.6712 Z-2.0000 S1000
G1 F700 X88.8214 Y192.8117 Z-2.0000 S1000
G1 F700 X89.1563 Y192.8906 Z-2.0000 S1000
G1 F700 X91.5938 Y192.8906 Z-2.0000 S1000
G1 F700 X91.5938 Y201.0469 Z-2.0000 S1000
G1 F700 X89.1563 Y201.0469 Z-2.0000 S1000
G1 F700 X88.9190 Y201.0854 Z-2.0000 S1000
G1 F700 X88.6263 Y201.2663 Z-2.0000 S1000
G1 F700 X88.5325 Y201.3600 Z-2.0000 S1000
G1 F700 X88.3914 Y201.5557 Z-2.0000 S1000
G1 F700 X88.3125 Y201.8906 Z-2.0000 S1000
G1 F700 X88.3125 Y211.7344 Z-2.0000 S1000
G1 F700 X88.3513 Y211.9725 Z-2.0000 S1000
G1 F700 X88.5325 Y212.2650 Z-2.0000 S1000
G1 F700 X88.6263 Y212.3587 Z-2.0000 S1000
G1 F700 X88.8214 Y212.4992 Z-2.0000 S1000
G1 F700 X89.1563 Y212.5781 Z-2.0000 S1000
G1 F700 X91.5938 Y212.5781 Z-2.0000 S1000
G1 F700 X91.5938 Y220.7344 Z-2.0000 S1000
G1 F700 X89.1563 Y220.7344 Z-2.0000 S1000
G1 F700 X88.9190 Y220.7729 Z-2.0000 S1000
G1 F700 X88.6263 Y220.9538 Z-2.0000 S1000
G1 F700 X88.5325 Y221.0475 Z-2.0000 S1000
G1 F700 X88.3914 Y221.2432 Z-2.0000 S1000
G1 F700 X88.3125 Y221.5781 Z-2.0000 S1000
G1 F700 X88.3125 Y231.4219 Z-2.0000 S1000
G1 F700 X88.3513 Y231.6600 Z-2.0000 S1000
G1 F700 X88.5325 Y231.9525 Z-2.0000 S1000
G1 F700 X88.6263 Y232.0462 Z-2.0000 S1000
G1 F700 X88.8214 Y232.1867 Z-2.0000 S1000
G1 F700 X89.1563 Y232.2656 Z-2.0000 S1000
G1 F700 X91.5938 Y232.2656 Z-2.0000 S1000
G1 F700 X91.5938 Y240.4219 Z-2.0000 S1000
G1 F700 X89.1563 Y240.4219 Z-2.0000 S1000
G1 F700 X88.9190 Y240.4604 Z-2.0000 S1000
G1 F700 X88.6263 Y240.6413 Z-2.0000 S1000
G1 F700 X88.5325 Y240.7350 Z-2.0000 S1000
G1 F700 X88.3914 Y240.9307 Z-2.0000 S1000
G1 F700 X88.3125 Y241.2656 Z-2.0000 S1000
G1 F700 X88.3125 Y251.1094 Z-2.0000 S1000
G1 F700 X88.3513 Y251.3475 Z-2.0000 S1000
G1 F700 X88.5325 Y251.6400 Z-2.0000 S1000
G1 F700 X88.6263 Y251.7337 Z-2.0000 S1000
G1 F700 X88.8214 Y251.8742 Z-2.0000 S1000
G1 F700 X89.1563 Y251.9531 Z-2.0000 S1000
G1 F700 X91.5938 Y251.9531 Z-2.0000 S1000
G1 F700 X91.5938 Y260.1094 Z-2.0000 S1000
G1 F700 X89.1563 Y260.1094 Z-2.0000 S1000
G1 F700 X88.9190 Y260.1479 Z-2.0000 S1000
G1 F700 X88.6263 Y260.3288 Z-2.0000 S1000
G1 F700 X88.5325 Y260.4225 Z-2.0000 S1000
G1 F700 X88.3914 Y260.6182 Z-2.0000 S1000
G1 F700 X88.3125 Y260.9531 Z-2.0000 S1000
G1 F700 X88.3125 Y270.7969 Z-2.0000 S1000
G1 F700 X88.3513 Y271.0350 Z-2.0000 S1000
G1 F700 X88.5325 Y271.3275 Z-2.0000 S1000
G1 F700 X88.6263 Y271.4212 Z-2.0000 S1000
G1 F700 X88.8214 Y271.5617 Z-2.0000 S1000
G1 F700 X89.1563 Y271.6406 Z-2.0000 S1000
G1 F700 X91.5938 Y271.6406 Z-2.0000 S1000
G1 F700 X91.5938 Y279.7969 Z-2.0000 S1000
G1 F700 X89.1563 Y279.7969 Z-2.0000 S1000
G1 F700 X88.9190 Y279.8354 Z-2.0000 S1000
G1 F700 X88.6263 Y280.0163 Z-2.0000 S1000
G1 F700 X88.5325 Y280.1100 Z-2.0000 S1000
G1 F700 X88.3914 Y280.3057 Z-2.0000 S1000
G1 F700 X88.3125 Y280.6406 Z-2.0000 S1000
G1 F700 X88.3125 Y290.4844 Z-2.0000 S1000
G1 F700 X88.3513 Y290.7225 Z-2.0000 S1000
G1 F700 X88.5325 Y291.0150 Z-2.0000 S1000
G1 F700 X88.6263 Y291.1087 Z-2.0000 S1000
G1 F700 X88.8214 Y291.2492 Z-2.0000 S1000
G1 F700 X89.1563 Y291.3281 Z-2.0000 S1000
G1 F700 X91.5938 Y291.3281 Z-2.0000 S1000
G1 F700 X91.5938 Y299.4844 Z-2.0000 S1000
G1 F700 X89.1563 Y299.4844 Z-2.0000 S1000
G1 F700 X88.9190 Y299.5229 Z-2.0000 S1000
G1 F700 X88.6263 Y299.7038 Z-2.0000 S1000
G1 F700 X88.5325 Y299.7975 Z-2.0000 S1000
G1 F700 X88.3914 Y299.9932 Z-2.0000 S1000
G1 F700 X88.3125 Y300.3281 Z-2.0000 S1000
G1 F700 X88.3125 Y310.1719 Z-2.0000 S1000
G1 F700 X88.3513 Y310.4100 Z-2.0000 S1000
G1 F700 X88.5325 Y310.7025 Z-2.0000 S1000
G1 F700 X88.6263 Y310.7962 Z-2.0000 S1000
G1 F700 X88.8214 Y310.9367 Z-2.0000 S1000
G1 F700 X89.1563 Y311.0156 Z-2.0000 S1000
G1 F700 X91.5938 Y311.0156 Z-2.0000 S1000
G1 F700 X91.5938 Y319.1719 Z-2.0000 S1000
G1 F700 X89.1563 Y319.1719 Z-2.0000 S1000
G1 F700 X88.9190 Y319.2104 Z-2.0000 S1000
G1 F700 X88.6263 Y319.3913 Z-2.0000 S1000
G1 F700 X88.5325 Y319.4850 Z-2.0000 S1000
G1 F700 X88.3914 Y319.6807 Z-2.0000 S1000
G1 F700 X88.3125 Y320.0156 Z-2.0000 S1000
G1 F700 X88.3125 Y329.8594 Z-2.0000 S1000
G1 F700 X88.3513 Y330.0975 Z-2.0000 S1000
G1 F700 X88.5325 Y330.3900 Z-2.0000 S1000
G1 F700 X88.6263 Y330.4837 Z-2.0000 S1000
G1 F700 X88.8214 Y330.6242 Z-2.0000 S1000
G1 F700 X89.1563 Y330.7031 Z-2.0000 S1000
G1 F700 X91.5938 Y330.7031 Z-2.0000 S1000
G1 F700 X91.5938 Y338.8594 Z-2.0000 S1000
G1 F700 X89.1563 Y338.8594 Z-2.0000 S1000
G1 F700 X88.9190 Y338.8979 Z-2.0000 S1000
G1 F700 X88.6263 Y339.0788 Z-2.0000 S1000
G1 F700 X88.5325 Y339.1725 Z-2.0000 S1000
G1 F700 X88.3914 Y339.3682 Z-2.0000 S1000
G1 F700 X88.3125 Y339.7031 Z-2.0000 S1000
G1 F700 X88.3125 Y349.5469 Z-2.0000 S1000
G1 F700 X88.3513 Y349.7850 Z-2.0000 S1000
G1 F700 X88.5325 Y350.0775 Z-2.0000 S1000
G1 F700 X88.6263 Y350.1712 Z-2.0000 S1000
G1 F700 X88.8214 Y350.3117 Z-2.0000 S1000
G1 F700 X89.1563 Y350.3906 Z-2.0000 S1000
G1 F700 X91.5938 Y350.3906 Z-2.0000 S1000
G1 F700 X91.5938 Y358.5469 Z-2.0000 S1000
G1 F700 X89.1563 Y358.5469 Z-2.0000 S1000
G1 F700 X88.9190 Y358.5854 Z-2.0000 S1000
G1 F700 X88.6263 Y358.7663 Z-2.0000 S1000
G1 F700 X88.5325 Y358.8600 Z-2.0000 S1000
G1 F700 X88.3914 Y359.0557 Z-2.0000 S1000
G1 F700 X88.3125 Y359.3906 Z-2.0000 S1000
G1 F700 X88.3125 Y369.2344 Z-2.0000 S1000
G1 F700 X88.3513 Y369.4725 Z-2.0000 S1000
G1 F700 X88.5325 Y369.7650 Z-2.0000 S1000
G1 F700 X88.6263 Y369.8587 Z-2.0000 S1000
G1 F700 X88.8214 Y369.9992 Z-2.0000 S1000
G1 F700 X89.1563 Y370.0781 Z-2.0000 S1000
G1 F700 X91.5938 Y370.0781 Z-2.0000 S1000
G1 F700 X91.5938 Y378.2344 Z-2.0000 S1000
G1 F700 X89.1563 Y378.2344 Z-2.0000 S1000
G1 F700 X88.9190 Y378.2729 Z-2.0000 S1000
G1 F700 X88.6263 Y378.4538 Z-2.0000 S1000
G1 F700 X88.5325 Y378.5475 Z-2.0000 S1000
G1 F700 X88.3914 Y378.7432 Z-2.0000 S1000
G1 F700 X88.3125 Y379.0781 Z-2.0000 S1000
G1 F700 X88.3125 Y393.8438 Z-2.0000 S1000
G1 F700 X88.3513 Y394.0819 Z-2.0000 S1000
G1 F700 X88.5325 Y394.3744 Z-2.0000 S1000
G1 F700 X88.6263 Y394.4681 Z-2.0000 S1000
G1 F700 X88.8214 Y394.6086 Z-2.0000 S1000
G1 F700 X89.1563 Y394.6875 Z-2.0000 S1000
G1 F700 X98.2969 Y394.6875 Z-2.0000 S1000
G1 F700 X98.5346 Y394.6488 Z-2.0000 S1000
G1 F700 X98.8272 Y394.4678 Z-2.0000 S1000
G1 F700 X98.9209 Y394.3741 Z-2.0000 S1000
G1 F700 X99.0617 Y394.1787 Z-2.0000 S1000
G1 F700 X99.1406 Y393.8438 Z-2.0000 S1000
G1 F700 X99.1406 Y391.4063 Z-2.0000 S1000
G1 F700 X107.2969 Y391.4063 Z-2.0000 S1000
G1 F700 X107.2969 Y393.8438 Z-2.0000 S1000
G1 F700 X107.3356 Y394.0815 Z-2.0000 S1000
G1 F700 X107.5166 Y394.3741 Z-2.0000 S1000
G1 F700 X107.6103 Y394.4678 Z-2.0000 S1000
G1 F700 X107.8057 Y394.6086 Z-2.0000 S1000
G1 F700 X108.1406 Y394.6875 Z-2.0000 S1000
G1 F700 X117.2813 Y394.6875 Z-2.0000 S1000
G1 F700 X117.5190 Y394.6488 Z-2.0000 S1000
G1 F700 X117.8116 Y394.4678 Z-2.0000 S1000
G1 F700 X117.9053 Y394.3741 Z-2.0000 S1000
G1 F700 X118.0461 Y394.1787 Z-2.0000 S1000
G1 F700 X118.1250 Y393.8438 Z-2.0000 S1000
G1 F700 X118.1250 Y379.0781 Z-2.0000 S1000
G1 F700 X118.0863 Y378.8404 Z-2.0000 S1000
G1 F700 X117.9053 Y378.5478 Z-2.0000 S1000
G1 F700 X117.8116 Y378.4541 Z-2.0000 S1000
G1 F700 X117.6162 Y378.3133 Z-2.0000 S1000
G1 F700 X117.2813 Y378.2344 Z-2.0000 S1000
G1 F700 X114.8438 Y378.2344 Z-2.0000 S1000
G1 F700 X114.8438 Y370.0781 Z-2.0000 S1000
G1 F700 X117.2813 Y370.0781 Z-2.0000 S1000
G1 F700 X117.5190 Y370.0394 Z-2.0000 S1000
G1 F700 X117.8116 Y369.8584 Z-2.0000 S1000
G1 F700 X117.9053 Y369.7647 Z-2.0000 S1000
G1 F700 X118.0461 Y369.5693 Z-2.0000 S1000
G1 F700 X118.1250 Y369.2344 Z-2.0000 S1000
G1 F700 X118.1250 Y359.3906 Z-2.0000 S1000
G1 F700 X118.0863 Y359.1529 Z-2.0000 S1000
G1 F700 X117.9053 Y358.8603 Z-2.0000 S1000
G1 F700 X117.8116 Y358.7666 Z-2.0000 S1000
G1 F700 X117.6162 Y358.6258 Z-2.0000 S1000
G1 F700 X117.2813 Y358.5469 Z-2.0000 S1000
G1 F700 X114.8438 Y358.5469 Z-2.0000 S1000
G1 F700 X114.8438 Y350.3906 Z-2.0000 S1000
G1 F700 X117.2813 Y350.3906 Z-2.0000 S1000
G1 F700 X117.5190 Y350.3519 Z-2.0000 S1000
G1 F700 X117.8116 Y350.1709 Z-2.0000 S1000
G1 F700 X117.9053 Y350.0772 Z-2.0000 S1000
G1 F700 X118.0461 Y349.8818 Z-2.0000 S1000
G1 F700 X118.1250 Y349.5469 Z-2.0000 S1000
G1 F700 X118.1250 Y339.7031 Z-2.0000 S1000
G1 F700 X118.0863 Y339.4654 Z-2.0000 S1000
G1 F700 X117.9053 Y339.1728 Z-2.0000 S1000
G1 F700 X117.8116 Y339.0791 Z-2.0000 S1000
G1 F700 X117.6162 Y338.9383 Z-2.0000 S1000
G1 F700 X117.2813 Y338.8594 Z-2.0000 S1000
G1 F700 X114.8438 Y338.8594 Z-2.0000 S1000
G1 F700 X114.8438 Y330.7031 Z-2.0000 S1000
G1 F700 X117.2813 Y330.7031 Z-2.0000 S1000
G1 F700 X117.5190 Y330.6644 Z-2.0000 S1000
G1 F700 X117.8116 Y330.4834 Z-2.0000 S1000
G1 F700 X117.9053 Y330.3897 Z-2.0000 S1000
G1 F700 X118.0461 Y330.1943 Z-2.0000 S1000
G1 F700 X118.1250 Y329.8594 Z-2.0000 S1000
G1 F700 X118.1250 Y320.0156 Z-2.0000 S1000
G1 F700 X118.0863 Y319.7779 Z-2.0000 S1000
G1 F700 X117.9053 Y319.4853 Z-2.0000 S1000
G1 F700 X117.8116 Y319.3916 Z-2.0000 S1000
G1 F700 X117.6162 Y319.2508 Z-2.0000 S1000
G1 F700 X117.2813 Y319.1719 Z-2.0000 S1000
G1 F700 X114.8438 Y319.1719 Z-2.0000 S1000
G1 F700 X114.8438 Y311.0156 Z-2.0000 S1000
G1 F700 X117.2813 Y311.0156 Z-2.0000 S1000
G1 F700 X117.5190 Y310.9769 Z-2.0000 S1000
G1 F700 X117.8116 Y310.7959 Z-2.0000 S1000
G1 F700 X117.9053 Y310.7022 Z-2.0000 S1000
G1 F700 X118.0461 Y310.5068 Z-2.0000 S1000
G1 F700 X118.1250 Y310.1719 Z-2.0000 S1000
G1 F700 X118.1250 Y300.3281 Z-2.0000 S1000
G1 F700 X118.0863 Y300.0904 Z-2.0000 S1000
G1 F700 X117.9053 Y299.7978 Z-2.0000 S1000
G1 F700 X117.8116 Y299.7041 Z-2.0000 S1000
G1 F700 X117.6162 Y299.5633 Z-2.0000 S1000
G1 F700 X117.2813 Y299.4844 Z-2.0000 S1000
G1 F700 X114.8438 Y299.4844 Z-2.0000 S1000
G1 F700 X114.8438 Y291.3281 Z-2.0000 S1000
G1 F700 X117.2813 Y291.3281 Z-2.0000 S1000
G1 F700 X117.5190 Y291.2894 Z-2.0000 S1000
G1 F700 X117.8116 Y291.1084 Z-2.0000 S1000
G1 F700 X117.9053 Y291.0147 Z-2.0000 S1000
G1 F700 X118.0461 Y290.8193 Z-2.0000 S1000
G1 F700 X118.1250 Y290.4844 Z-2.0000 S1000
G1 F700 X118.1250 Y280.6406 Z-2.0000 S1000
G1 F700 X118.0863 Y280.4029 Z-2.0000 S1000
G1 F700 X117.9053 Y280.1103 Z-2.0000 S1000
G1 F700 X117.8116 Y280.0166 Z-2.0000 S1000
G1 F700 X117.6162 Y279.8758 Z-2.0000 S1000
G1 F700 X117.2813 Y279.7969 Z-2.0000 S1000
G1 F700 X114.8438 Y279.7969 Z-2.0000 S1000
G1 F700 X114.8438 Y271.6406 Z-2.0000 S1000
G1 F700 X117.2813 Y271.6406 Z-2.0000 S1000
G1 F700 X117.5190 Y271.6019 Z-2.0000 S1000
G1 F700 X117.8116 Y271.4209 Z-2.0000 S1000
G1 F700 X117.9053 Y271.3272 Z-2.0000 S1000
G1 F700 X118.0461 Y271.1318 Z-2.0000 S1000
G1 F700 X118.1250 Y270.7969 Z-2.0000 S1000
G1 F700 X118.1250 Y260.9531 Z-2.0000 S1000
G1 F700 X118.0863 Y260.7154 Z-2.0000 S1000
G1 F700 X117.9053 Y260.4228 Z-2.0000 S1000
G1 F700 X117.8116 Y260.3291 Z-2.0000 S1000
G1 F700 X117.6162 Y260.1883 Z-2.0000 S1000
G1 F700 X117.2813 Y260.1094 Z-2.0000 S1000
G1 F700 X114.8438 Y260.1094 Z-2.0000 S1000
G1 F700 X114.8438 Y251.9531 Z-2.0000 S1000
G1 F700 X117.2813 Y251.9531 Z-2.0000 S1000
G1 F700 X117.5190 Y251.9144 Z-2.0000 S1000
G1 F700 X117.8116 Y251.7334 Z-2.0000 S1000
G1 F700 X117.9053 Y251.6397 Z-2.0000 S1000
G1 F700 X118.0461 Y251.4443 Z-2.0000 S1000
G1 F700 X118.1250 Y251.1094 Z-2.0000 S1000
G1 F700 X118.1250 Y241.2656 Z-2.0000 S1000
G1 F700 X118.0863 Y241.0279 Z-2.0000 S1000
G1 F700 X117.9053 Y240.7353 Z-2.0000 S1000
G1 F700 X117.8116 Y240.6416 Z-2.0000 S1000
G1 F700 X117.6162 Y240.5008 Z-2.0000 S1000
G1 F700 X117.2813 Y240.4219 Z-2.0000 S1000
G1 F700 X114.8438 Y240.4219 Z-2.0000 S1000
G1 F700 X114.8438 Y232.2656 Z-2.0000 S1000
G1 F700 X117.2813 Y232.2656 Z-2.0000 S1000
G1 F700 X117.5190 Y232.2269 Z-2.0000 S1000
G1 F700 X117.8116 Y232.0459 Z-2.0000 S1000
G1 F700 X117.9053 Y231.9522 Z-2.0000 S1000
G1 F700 X118.0461 Y231.7568 Z-2.0000 S1000
G1 F700 X118.1250 Y231.4219 Z-2.0000 S1000
G1 F700 X118.1250 Y221.5781 Z-2.0000 S1000
G1 F700 X118.0863 Y221.3404 Z-2.0000 S1000
G1 F700 X117.9053 Y221.0478 Z-2.0000 S1000
G1 F700 X117.8116 Y220.9541 Z-2.0000 S1000
G1 F700 X117.6162 Y220.8133 Z-2.0000 S1000
G1 F700 X117.2813 Y220.7344 Z-2.0000 S1000
G1 F700 X114.8438 Y220.7344 Z-2.0000 S1000
G1 F700 X114.8438 Y212.5781 Z-2.0000 S1000
G1 F700 X117.2813 Y212.5781 Z-2.0000 S1000
G1 F700 X117.5190 Y212.5394 Z-2.0000 S1000
G1 F700 X117.8116 Y212.3584 Z-2.0000 S1000
G1 F700 X117.9053 Y212.2647 Z-2.0000 S1000
G1 F700 X118.0461 Y212.0693 Z-2.0000 S1000
G1 F700 X118.1250 Y211.7344 Z-2.0000 S1000
G1 F700 X118.1250 Y201.8906 Z-2.0000 S1000
G1 F700 X118.0863 Y201.6529 Z-2.0000 S1000
G1 F700 X117.9053 Y201.3603 Z-2.0000 S1000
G1 F700 X117.8116 Y201.2666 Z-2.0000 S1000
G1 F700 X117.6162 Y201.1258 Z-2.0000 S1000
G1 F700 X117.2813 Y201.0469 Z-2.0000 S1000
G1 F700 X114.8438 Y201.0469 Z-2.0000 S1000
G1 F700 X114.8438 Y192.8906 Z-2.0000 S1000
G1 F700 X117.2813 Y192.8906 Z-2.0000 S1000
G1 F700 X117.5190 Y192.8519 Z-2.0000 S1000
G1 F700 X117.8116 Y192.6709 Z-2.0000 S1000
G1 F700 X117.9053 Y192.5772 Z-2.0000 S1000
G1 F700 X118.0461 Y192.3818 Z-2.0000 S1000
G1 F700 X118.1250 Y192.0469 Z-2.0000 S1000
G1 F700 X118.1250 Y182.2031 Z-2.0000 S1000
G1 F700 X118.0863 Y181.9654 Z-2.0000 S1000
G1 F700 X117.9053 Y181.6728 Z-2.0000 S1000
G1 F700 X117.8116 Y181.5791 Z-2.0000 S1000
G1 F700 X117.6162 Y181.4383 Z-2.0000 S1000
G1 F700 X117.2813 Y181.3594 Z-2.0000 S1000
G1 F700 X114.8438 Y181.3594 Z-2.0000 S1000
G1 F700 X114.8438 Y173.2031 Z-2.0000 S1000
G1 F700 X117.2813 Y173.2031 Z-2.0000 S1000
G1 F700 X117.5190 Y173.1644 Z-2.0000 S1000
G1 F700 X117.8116 Y172.9834 Z-2.0000 S1000
G1 F700 X117.9053 Y172.8897 Z-2.0000 S1000
G1 F700 X118.0461 Y172.6943 Z-2.0000 S1000
G1 F700 X118.1250 Y172.3594 Z-2.0000 S1000
G1 F700 X118.1250 Y162.5156 Z-2.0000 S1000
G1 F700 X118.0863 Y162.2779 Z-2.0000 S1000
G1 F700 X117.9053 Y161.9853 Z-2.0000 S1000
G1 F700 X117.8116 Y161.8916 Z-2.0000 S1000
G1 F700 X117.6162 Y161.7508 Z-2.0000 S1000
G1 F700 X117.2813 Y161.6719 Z-2.0000 S1000
G1 F700 X114.8438 Y161.6719 Z-2.0000 S1000
G1 F700 X114.8438 Y153.5156 Z-2.0000 S1000
G1 F700 X117.2813 Y153.5156 Z-2.0000 S1000
G1 F700 X117.5190 Y153.4769 Z-2.0000 S1000
G1 F700 X117.8116 Y153.2959 Z-2.0000 S1000
G1 F700 X117.9053 Y153.2022 Z-2.0000 S1000
G1 F700 X118.0461 Y153.0068 Z-2.0000 S1000
G1 F700 X118.1250 Y152.6719 Z-2.0000 S1000
G1 F700 X118.1250 Y142.8281 Z-2.0000 S1000
G1 F700 X118.0863 Y142.5904 Z-2.0000 S1000
G1 F700 X117.9053 Y142.2978 Z-2.0000 S1000
G1 F700 X117.8116 Y142.2041 Z-2.0000 S1000
G1 F700 X117.6162 Y142.0633 Z-2.0000 S1000
G1 F700 X117.2813 Y141.9844 Z-2.0000 S1000
G1 F700 X114.8438 Y141.9844 Z-2.0000 S1000
G1 F700 X114.8438 Y133.8281 Z-2.0000 S1000
G1 F700 X117.2813 Y133.8281 Z-2.0000 S1000
G1 F700 X117.5190 Y133.7894 Z-2.0000 S1000
G1 F700 X117.8116 Y133.6084 Z-2.0000 S1000
G1 F700 X117.9053 Y133.5147 Z-2.0000 S1000
G1 F700 X118.0461 Y133.3193 Z-2.0000 S1000
G1 F700 X118.1250 Y132.9844 Z-2.0000 S1000
G1 F700 X118.1250 Y123.1406 Z-2.0000 S1000
G1 F700 X118.0863 Y122.9029 Z-2.0000 S1000
G1 F700 X117.9053 Y122.6103 Z-2.0000 S1000
G1 F700 X117.8116 Y122.5166 Z-2.0000 S1000
G1 F700 X117.6162 Y122.3758 Z-2.0000 S1000
G1 F700 X117.2813 Y122.2969 Z-2.0000 S1000
G1 F700 X114.8438 Y122.2969 Z-2.0000 S1000
G1 F700 X114.8438 Y114.1406 Z-2.0000 S1000
G1 F700 X117.2813 Y114.1406 Z-2.0000 S1000
G1 F700 X117.5190 Y114.1019 Z-2.0000 S1000
G1 F700 X117.8116 Y113.9209 Z-2.0000 S1000
G1 F700 X117.9053 Y113.8272 Z-2.0000 S1000
G1 F700 X118.0461 Y113.6318 Z-2.0000 S1000
G1 F700 X118.1250 Y113.2969 Z-2.0000 S1000
G1 F700 X118.1250 Y103.4531 Z-2.0000 S1000
G1 F700 X118.0863 Y103.2154 Z-2.0000 S1000
G1 F700 X117.9053 Y102.9228 Z-2.0000 S1000
G1 F700 X117.8116 Y102.8291 Z-2.0000 S1000
G1 F700 X117.6162 Y102.6883 Z-2.0000 S1000
G1 F700 X117.2813 Y102.6094 Z-2.0000 S1000
G1 F700 X114.8438 Y102.6094 Z-2.0000 S1000
G1 F700 X114.8438 Y94.4531 Z-2.0000 S1000
G1 F700 X117.2813 Y94.4531 Z-2.0000 S1000
G1 F700 X117.5190 Y94.4144 Z-2.0000 S1000
G1 F700 X117.8116 Y94.2334 Z-2.0000 S1000
G1 F700 X117.9053 Y94.1397 Z-2.0000 S1000
G1 F700 X118.0461 Y93.9443 Z-2.0000 S1000
G1 F700 X118.1250 Y93.6094 Z-2.0000 S1000
G1 F700 X118.1250 Y83.7656 Z-2.0000 S1000
G1 F700 X118.0863 Y83.5279 Z-2.0000 S1000
G1 F700 X117.9053 Y83.2353 Z-2.0000 S1000
G1 F700 X117.8116 Y83.1416 Z-2.0000 S1000
G1 F700 X117.6162 Y83.0008 Z-2.0000 S1000
G1 F700 X117.2813 Y82.9219 Z-2.0000 S1000
G1 F700 X114.8438 Y82.9219 Z-2.0000 S1000
G1 F700 X114.8438 Y74.7656 Z-2.0000 S1000
G1 F700 X117.2813 Y74.7656 Z-2.0000 S1000
G1 F700 X117.5190 Y74.7269 Z-2.0000 S1000
G1 F700 X117.8116 Y74.5459 Z-2.0000 S1000
G1 F700 X117.9053 Y74.4522 Z-2.0000 S1000
G1 F700 X118.0461 Y74.2568 Z-2.0000 S1000
G1 F700 X118.1250 Y73.9219 Z-2.0000 S1000
G1 F700 X118.1250 Y64.0781 Z-2.0000 S1000
G1 F700 X118.0863 Y63.8404 Z-2.0000 S1000
G1 F700 X117.9053 Y63.5478 Z-2.0000 S1000
G1 F700 X117.8116 Y63.4541 Z-2.0000 S1000
G1 F700 X117.6162 Y63.3133 Z-2.0000 S1000
G1 F700 X117.2813 Y63.2344 Z-2.0000 S1000
G1 F700 X114.8438 Y63.2344 Z-2.0000 S1000
G1 F700 X114.8438 Y55.0781 Z-2.0000 S1000
G1 F700 X117.2813 Y55.0781 Z-2.0000 S1000
G1 F700 X117.5190 Y55.0394 Z-2.0000 S1000
G1 F700 X117.8116 Y54.8584 Z-2.0000 S1000
G1 F700 X117.9053 Y54.7647 Z-2.0000 S1000
G1 F700 X118.0461 Y54.5693 Z-2.0000 S1000
G1 F700 X118.1250 Y54.2344 Z-2.0000 S1000
G1 F700 X118.1250 Y44.3906 Z-2.0000 S1000
G1 F700 X118.0863 Y44.1529 Z-2.0000 S1000
G1 F700 X117.9053 Y43.8603 Z-2.0000 S1000
G1 F700 X117.8116 Y43.7666 Z-2.0000 S1000
G1 F700 X117.6162 Y43.6258 Z-2.0000 S1000
G1 F700 X117.2813 Y43.5469 Z-2.0000 S1000
G1 F700 X114.8438 Y43.5469 Z-2.0000 S1000
G1 F700 X114.8438 Y35.3906 Z-2.0000 S1000
G1 F700 X117.2813 Y35.3906 Z-2.0000 S1000
G1 F700 X117.5190 Y35.3519 Z-2.0000 S1000
G1 F700 X117.8116 Y35.1709 Z-2.0000 S1000
G1 F700 X117.9053 Y35.0772 Z-2.0000 S1000
G1 F700 X118.0461 Y34.8818 Z-2.0000 S1000
G1 F700 X118.1250 Y34.5469 Z-2.0000 S1000
G1 F700 X118.1250 Y24.7031 Z-2.0000 S1000
G1 F700 X118.0863 Y24.4654 Z-2.0000 S1000
G1 F700 X117.9053 Y24.1728 Z-2.0000 S1000
G1 F700 X117.8116 Y24.0791 Z-2.0000 S1000
G1 F700 X117.6162 Y23.9383 Z-2.0000 S1000
G1 F700 X117.2813 Y23.8594 Z-2.0000 S1000
G1 F700 X114.8438 Y23.8594 Z-2.0000 S1000
G1 F700 X114.8438 Y15.7031 Z-2.0000 S1000
G1 F700 X117.2813 Y15.7031 Z-2.0000 S1000
G1 F700 X117.5190 Y15.6644 Z-2.0000 S1000
G1 F700 X117.8116 Y15.4834 Z-2.0000 S1000
G1 F700 X117.9053 Y15.3897 Z-2.0000 S1000
G1 F700 X118.0461 Y15.1943 Z-2.0000 S1000
G1 F700 X118.1250 Y14.8594 Z-2.0000 S1000
G1 F700 X118.1250 Y0.0938 Z-2.0000 S1000
G1 F700 X118.0865 Y-0.1435 Z-2.0000 S1000
G1 F700 X117.9056 Y-0.4362 Z-2.0000 S1000
G1 F700 X117.8119 Y-0.5300 Z-2.0000 S1000
G1 F700 X117.6162 Y-0.6711 Z-2.0000 S1000
G1 F700 X117.2813 Y-0.7500 Z-2.0000 S1000
G1 F700 X108.1406 Y-0.7500 Z-2.0000 S1000
G1 F700 X107.9025 Y-0.7112 Z-2.0000 S1000
G1 F700 X107.6100 Y-0.5300 Z-2.0000 S1000
G1 F700 X107.5163 Y-0.4362 Z-2.0000 S1000
G1 F700 X107.3758 Y-0.2411 Z-2.0000 S1000
G1 F700 X107.2969 Y0.0938 Z-2.0000 S1000
G1 F700 X107.2969 Y2.5312 Z-2.0000 S1000
G1 F700 X99.1406 Y2.5312 Z-2.0000 S1000
G1 F700 X99.1406 Y0.0938 Z-2.0000 S1000
G1 F700 X99.1021 Y-0.1435 Z-2.0000 S1000
G1 F700 X98.9212 Y-0.4362 Z-2.0000 S1000
G1 F700 X98.8275 Y-0.5300 Z-2.0000 S1000
G1 F700 X98.6318 Y-0.6711 Z-2.0000 S1000
G1 F700 X98.2969 Y-0.7500 Z-2.0000 S1000
G1 F300 Z-3.5000
G1 F700 X89.1563 Y-0.7500 Z-3.5000 S1000
G1 F700 X88.9186 Y-0.7113 Z-3.5000 S1000
G1 F700 X88.6260 Y-0.5303 Z-3.5000 S1000
G1 F700 X88.5322 Y-0.4365 Z-3.5000 S1000
G1 F700 X88.3914 Y-0.2411 Z-3.5000 S1000
G1 F700 X88.3125 Y0.0938 Z-3.5000 S1000
G1 F700 X88.3125 Y14.8594 Z-3.5000 S1000
G1 F700 X88.3513 Y15.0975 Z-3.5000 S1000
G1 F700 X88.5325 Y15.3900 Z-3.5000 S1000
G1 F700 X88.6263 Y15.4837 Z-3.5000 S1000
G1 F700 X88.8214 Y15.6242 Z-3.5000 S1000
G1 F700 X89.1563 Y15.7031 Z-3.5000 S1000
G1 F700 X91.5938 Y15.7031 Z-3.5000 S1000
G1 F700 X91.5938 Y23.8594 Z-3.5000 S1000
G1 F700 X89.1563 Y23.8594 Z-3.5000 S1000
G1 F700 X88.9190 Y23.8979 Z-3.5000 S1000
G1 F700 X88.6263 Y24.0788 Z-3.5000 S1000
G1 F700 X88.5325 Y24.1725 Z-3.5000 S1000
G1 F700 X88.3914 Y24.3682 Z-3.5000 S1000
G1 F700 X88.3125 Y24.7031 Z-3.5000 S1000
G1 F700 X88.3125 Y34.5469 Z-3.5000 S1000
G1 F700 X88.3513 Y34.7850 Z-3.5000 S1000
G1 F700 X88.5325 Y35.0775 Z-3.5000 S1000
G1 F700 X88.6263 Y35.1712 Z-3.5000 S1000
G1 F700 X88.8214 Y35.3117 Z-3.5000 S1000
G1 F700 X89.1563 Y35.3906 Z-3.5000 S1000
G1 F700 X91.5938 Y35.3906 Z-3.5000 S1000
G1 F700 X91.5938 Y43.5469 Z-3.5000 S1000
G1 F700 X89.1563 Y43.5469 Z-3.5000 S1000
G1 F700 X88.9190 Y43.5854 Z-3.5000 S1000
G1 F700 X88.6263 Y43.7663 Z-3.5000 S1000
G1 F700 X88.5325 Y43.8600 Z-3.5000 S1000
G1 F700 X88.3914 Y44.0557 Z-3.5000 S1000
G1 F700 X88.3125 Y44.3906 Z-3.5000 S1000
G1 F700 X88.3125 Y54.2344 Z-3.5000 S1000
G1 F700 X88.3513 Y54.4725 Z-3.5000 S1000
G1 F700 X88.5325 Y54.7650 Z-3.5000 S1000
G1 F700 X88.6263 Y54.8587 Z-3.5000 S1000
G1 F700 X88.8214 Y54.9992 Z-3.5000 S1000
G1 F700 X89.1563 Y55.0781 Z-3.5000 S1000
G1 F700 X91.5938 Y55.0781 Z-3.5000 S1000
G1 F700 X91.5938 Y63.2344 Z-3.5000 S1000
G1 F700 X89.1563 Y63.2344 Z-3.5000 S1000
G1 F700 X88.9190 Y63.2729 Z-3.5000 S1000
G1 F700 X88.6263 Y63.4538 Z-3.5000 S1000
G1 F700 X88.5325 Y63.5475 Z-3.5000 S1000
G1 F700 X88.3914 Y63.7432 Z-3.5000 S1000
G1 F700 X88.3125 Y64.0781 Z-3.5000 S1000
G1 F700 X88.3125 Y73.9219 Z-3.5000 S1000
G1 F700 X88.3513 Y74.1600 Z-3.5000 S1000
G1 F700 X88.5325 Y74.4525 Z-3.5000 S1000
G1 F700 X88.6263 Y74.5462 Z-3.5000 S1000
G1 F700 X88.8214 Y74.6867 Z-3.5000 S1000
G1 F700 X89.1563 Y74.7656 Z-3.5000 S1000
G1 F700 X91.5938 Y74.7656 Z-3.5000 S1000
G1 F700 X91.5938 Y82.9219 Z-3.5000 S1000
G1 F700 X89.1563 Y82.9219 Z-3.5000 S1000
G1 F700 X88.9190 Y82.9604 Z-3.5000 S1000
G1 F700 X88.6263 Y83.1413 Z-3.5000 S1000
G1 F700 X88.5325 Y83.2350 Z-3.5000 S1000
G1 F700 X88.3914 Y83.4307 Z-3.5000 S1000
G1 F700 X88.3125 Y83.7656 Z-3.5000 S1000
G1 F700 X88.3125 Y93.6094 Z-3.5000 S1000
G1 F700 X88.3513 Y93.8475 Z-3.5000 S1000
G1 F700 X88.5325 Y94.1400 Z-3.5000 S1000
G1 F700 X88.6263 Y94.2337 Z-3.5000 S1000
G1 F700 X88.8214 Y94.3742 Z-3.5000 S1000
G1 F700 X89.1563 Y94.4531 Z-3.5000 S1000
G1 F700 X91.5938 Y94.4531 Z-3.5000 S1000
G1 F700 X91.5938 Y102.6094 Z-3.5000 S1000
G1 F700 X89.1563 Y102.6094 Z-3.5000 S1000
G1 F700 X88.9190 Y102.6479 Z-3.5000 S1000
G1 F700 X88.6263 Y102.8288 Z-3.5000 S1000
G1 F700 X88.5325 Y102.9225 Z-3.5000 S1000
G1 F700 X88.3914 Y103.1182 Z-3.5000 S1000
G1 F700 X88.3125 Y103.4531 Z-3.5000 S1000
G1 F700 X88.3125 Y113.2969 Z-3.5000 S1000
G1 F700 X88.3513 Y113.5350 Z-3.5000 S1000
G1 F700 X88.5325 Y113.8275 Z-3.5000 S1000
G1 F700 X88.6263 Y113.9212 Z-3.5000 S1000
G1 F700 X88.8214 Y114.0617 Z-3.5000 S1000
G1 F700 X89.1563 Y114.1406 Z-3.5000 S1000
G1 F700 X91.5938 Y114.1406 Z-3.5000 S1000
G1 F700 X91.5938 Y122.2969 Z-3.5000 S1000
G1 F700 X89.1563 Y122.2969 Z-3.5000 S1000
G1 F700 X88.9190 Y122.3354 Z-3.5000 S1000
G1 F700 X88.6263 Y122.5163 Z-3.5000 S1000
G1 F700 X88.5325 Y122.6100 Z-3.5000 S1000
G1 F700 X88.3914 Y122.8057 Z-3.5000 S1000
G1 F700 X88.3125 Y123.1406 Z-3.5000 S1000
G1 F700 X88.3125 Y132.9844 Z-3.5000 S1000
G1 F700 X88.3513 Y133.2225 Z-3.5000 S1000
G1 F700 X88.5325 Y133.5150 Z-3.5000 S1000
G1 F700 X88.6263 Y133.6087 Z-3.5000 S1000
G1 F700 X88.8214 Y133.7492 Z-3.5000 S1000
G1 F700 X89.1563 Y133.8281 Z-3.5000 S1000
G1 F700 X91.5938 Y133.8281 Z-3.5000 S1000
G1 F700 X91.5938 Y141.9844 Z-3.5000 S1000
G1 F700 X89.1563 Y141.9844 Z-3.5000 S1000
G1 F700 X88.9190 Y142.0229 Z-3.5000 S1000
G1 F700 X88.6263 Y142.2038 Z-3.5000 S1000
G1 F700 X88.5325 Y142.2975 Z-3.5000 S1000
G1 F700 X88.3914 Y142.4932 Z-3.5000 S1000
G1 F700 X88.3125 Y142.8281 Z-3.5000 S1000
G1 F700 X88.3125 Y152.6719 Z-3.5000 S1000
G1 F700 X88.3513 Y152.9100 Z-3.5000 S1000
G1 F700 X88.5325 Y153.2025 Z-3.5000 S1000
G1 F700 X88.6263 Y153.2962 Z-3.5000 S1000
G1 F700 X88.8214 Y153.4367 Z-3.5000 S1000
G1 F700 X89.1563 Y153.5156 Z-3.5000 S1000
G1 F700 X91.5938 Y153.5156 Z-3.5000 S1000
G1 F700 X91.5938 Y161.6719 Z-3.5000 S1000
G1 F700 X89.1563 Y161.6719 Z-3.5000 S1000
G1 F700 X88.9190 Y161.7104 Z-3.5000 S1000
G1 F700 X88.6263 Y161.8913 Z-3.5000 S1000
G1 F700 X88.5325 Y161.9850 Z-3.5000 S1000
G1 F700 X88.3914 Y162.1807 Z-3.5000 S1000
G1 F700 X88.3125 Y162.5156 Z-3.5000 S1000
G1 F700 X88.3125 Y172.3594 Z-3.5000 S1000
G1 F700 X88.3513 Y172.5975 Z-3.5000 S1000
G1 F700 X88.5325 Y172.8900 Z-3.5000 S1000
G1 F700 X88.6263 Y172.9837 Z-3.5000 S1000
G1 F700 X88.8214 Y173.1242 Z-3.5000 S1000
G1 F700 X89.1563 Y173.2031 Z-3.5000 S1000
G1 F700 X91.5938 Y173.2031 Z-3.5000 S1000
G1 F700 X91.5938 Y181.3594 Z-3.5000 S1000
G1 F700 X89.1563 Y181.3594 Z-3.5000 S1000
G1 F700 X88.9190 Y181.3979 Z-3.5000 S1000
G1 F700 X88.6263 Y181.5788 Z-3.5000 S1000
G1 F700 X88.5325 Y181.6725 Z-3.5000 S1000
G1 F700 X88.3914 Y181.8682 Z-3.5000 S1000
G1 F700 X88.3125 Y182.2031 Z-3.5000 S1000
G1 F700 X88.3125 Y192.0469 Z-3.5000 S1000
G1 F700 X88.3513 Y192.2850 Z-3.5000 S1000
G1 F700 X88.5325 Y192.5775 Z-3.5000 S1000
G1 F700 X88.6263 Y192.6712 Z-3.5000 S1000
G1 F700 X88.8214 Y192.8117 Z-3.5000 S1000
G1 F700 X89.1563 Y192.8906 Z-3.5000 S1000
G1 F700 X91.5938 Y192.8906 Z-3.5000 S1000
G1 F700 X91.5938 Y201.0469 Z-3.5000 S1000
G1 F700 X89.1563 Y201.0469 Z-3.5000 S1000
G1 F700 X88.9190 Y201.0854 Z-3.5000 S1000
G1 F700 X88.6263 Y201.2663 Z-3.5000 S1000
G1 F700 X88.5325 Y201.3600 Z-3.5000 S1000
G1 F700 X88.3914 Y201.5557 Z-3.5000 S1000
G1 F700 X88.3125 Y201.8906 Z-3.5000 S1000
G1 F700 X88.3125 Y211.7344 Z-3.5000 S1000
G1 F700 X88.3513 Y211.9725 Z-3.5000 S1000
G1 F700 X88.5325 Y212.2650 Z-3.5000 S1000
G1 F700 X88.6263 Y212.3587 Z-3.5000 S1000
G1 F700 X88.8214 Y212.4992 Z-3.5000 S1000
G1 F700 X89.1563 Y212.5781 Z-3.5000 S1000
G1 F700 X91.5938 Y212.5781 Z-3.5000 S1000
G1 F700 X91.5938 Y220.7344 Z-3.5000 S1000
G1 F700 X89.1563 Y220.7344 Z-3.5000 S1000
G1 F700 X88.9190 Y220.7729 Z-3.5000 S1000
G1 F700 X88.6263 Y220.9538 Z-3.5000 S1000
G1 F700 X88.5325 Y221.0475 Z-3.5000 S1000
G1 F700 X88.3914 Y221.2432 Z-3.5000 S1000
G1 F700 X88.3125 Y221.5781 Z-3.5000 S1000
G1 F700 X88.3125 Y231.4219 Z-3.5000 S1000
G1 F700 X88.3513 Y231.6600 Z-3.5000 S1000
G1 F700 X88.5325 Y231.9525 Z-3.5000 S1000
G1 F700 X88.6263 Y232.0462 Z-3.5000 S1000
G1 F700 X88.8214 Y232.1867 Z-3.5000 S1000
G1 F700 X89.1563 Y232.2656 Z-3.5000 S1000
G1 F700 X91.5938 Y232.2656 Z-3.5000 S1000
G1 F700 X91.5938 Y240.4219 Z-3.5000 S1000
G1 F700 X89.1563 Y240.4219 Z-3.5000 S1000
G1 F700 X88.9190 Y240.4604 Z-3.5000 S1000
G1 F700 X88.6263 Y240.6413 Z-3.5000 S1000
G1 F700 X88.5325 Y240.7350 Z-3.5000 S1000
G1 F700 X88.3914 Y240.9307 Z-3.5000 S1000
G1 F700 X88.3125 Y241.2656 Z-3.5000 S1000
G1 F700 X88.3125 Y251.1094 Z-3.5000 S1000
G1 F700 X88.3513 Y251.3475 Z-3.5000 S1000
G1 F700 X88.5325 Y251.6400 Z-3.5000 S1000
G1 F700 X88.6263 Y251.7337 Z-3.5000 S1000
G1 F700 X88.8214 Y251.8742 Z-3.5000 S1000
G1 F700 X89.1563 Y251.9531 Z-3.5000 S1000
G1 F700 X91.5938 Y251.9531 Z-3.5000 S1000
G1 F700 X91.5938 Y260.1094 Z-3.5000 S1000
G1 F700 X89.1563 Y260.1094 Z-3.5000 S1000
G1 F700 X88.9190 Y260.1479 Z-3.5000 S1000
G1 F700 X88.6263 Y260.3288 Z-3.5000 S1000
G1 F700 X88.5325 Y260.4225 Z-3.5000 S1000
G1 F700 X88.3914 Y260.6182 Z-3.5000 S1000
G1 F700 X88.3125 Y260.9531 Z-3.5000 S1000
G1 F700 X88.3125 Y270.7969 Z-3.5000 S1000
G1 F700 X88.3513 Y271.0350 Z-3.5000 S1000
G1 F700 X88.5325 Y271.3275 Z-3.5000 S1000
G1 F700 X88.6263 Y271.4212 Z-3.5000 S1000
G1 F700 X88.8214 Y271.5617 Z-3.5000 S1000
G1 F700 X89.1563 Y271.6406 Z-3.5000 S1000
G1 F700 X91.5938 Y271.6406 Z-3.5000 S1000
G1 F700 X91.5938 Y279.7969 Z-3.5000 S1000
G1 F700 X89.1563 Y279.7969 Z-3.5000 S1000
G1 F700 X88.9190 Y279.8354 Z-3.5000 S1000
G1 F700 X88.6263 Y280.0163 Z-3.5000 S1000
G1 F700 X88.5325 Y280.1100 Z-3.5000 S1000
G1 F700 X88.3914 Y280.3057 Z-3.5000 S1000
G1 F700 X88.3125 Y280.6406 Z-3.5000 S1000
G1 F700 X88.3125 Y290.4844 Z-3.5000 S1000
G1 F700 X88.3513 Y290.7225 Z-3.5000 S1000
G1 F700 X88.5325 Y291.0150 Z-3.5000 S1000
G1 F700 X88.6263 Y291.1087 Z-3.5000 S1000
G1 F700 X88.8214 Y291.2492 Z-3.5000 S1000
G1 F700 X89.1563 Y291.3281 Z-3.5000 S1000
G1 F700 X91.5938 Y291.3281 Z-3.5000 S1000
G1 F700 X91.5938 Y299.4844 Z-3.5000 S1000
G1 F700 X89.1563 Y299.4844 Z-3.5000 S1000
G1 F700 X88.9190 Y299.5229 Z-3.5000 S1000
G1 F700 X88.6263 Y299.7038 Z-3.5000 S1000
G1 F700 X88.5325 Y299.7975 Z-3.5000 S1000
G1 F700 X88.3914 Y299.9932 Z-3.5000 S1000
G1 F700 X88.3125 Y300.3281 Z-3.5000 S1000
G1 F700 X88.3125 Y310.1719 Z-3.5000 S1000
G1 F700 X88.3513 Y310.4100 Z-3.5000 S1000
G1 F700 X88.5325 Y310.7025 Z-3.5000 S1000
G1 F700 X88.6263 Y310.7962 Z-3.5000 S1000
G1 F700 X88.8214 Y310.9367 Z-3.5000 S1000
G1 F700 X89.1563 Y311.0156 Z-3.5000 S1000
G1 F700 X91.5938 Y311.0156 Z-3.5000 S1000
G1 F700 X91.5938 Y319.1719 Z-3.5000 S1000
G1 F700 X89.1563 Y319.1719 Z-3.5000 S1000
G1 F700 X88.9190 Y319.2104 Z-3.5000 S1000
G1 F700 X88.6263 Y319.3913 Z-3.5000 S1000
G1 F700 X88.5325 Y319.4850 Z-3.5000 S1000
G1 F700 X88.3914 Y319.6807 Z-3.5000 S1000
G1 F700 X88.3125 Y320.0156 Z-3.5000 S1000
G1 F700 X88.3125 Y329.8594 Z-3.5000 S1000
G1 F700 X88.3513 Y330.0975 Z-3.5000 S1000
G1 F700 X88.5325 Y330.3900 Z-3.5000 S1000
G1 F700 X88.6263 Y330.4837 Z-3.5000 S1000
G1 F700 X88.8214 Y330.6242 Z-3.5000 S1000
G1 F700 X89.1563 Y330.7031 Z-3.5000 S1000
G1 F700 X91.5938 Y330.7031 Z-3.5000 S1000
G1 F700 X91.5938 Y338.8594 Z-3.5000 S1000
G1 F700 X89.1563 Y338.8594 Z-3.5000 S1000
G1 F700 X88.9190 Y338.8979 Z-3.5000 S1000
G1 F700 X88.6263 Y339.0788 Z-3.5000 S1000
G1 F700 X88.5325 Y339.1725 Z-3.5000 S1000
G1 F700 X88.3914 Y339.3682 Z-3.5000 S1000
G1 F700 X88.3125 Y339.7031 Z-3.5000 S1000
G1 F700 X88.3125 Y349.5469 Z-3.5000 S1000
G1 F700 X88.3513 Y349.7850 Z-3.5000 S1000
G1 F700 X88.5325 Y350.0775 Z-3.5000 S1000
G1 F700 X88.6263 Y350.1712 Z-3.5000 S1000
G1 F700 X88.8214 Y350.3117 Z-3.5000 S1000
G1 F700 X89.1563 Y350.3906 Z-3.5000 S1000
G1 F700 X91.5938 Y350.3906 Z-3.5000 S1000
G1 F700 X91.5938 Y358.5469 Z-3.5000 S1000
G1 F700 X89.1563 Y358.5469 Z-3.5000 S1000
G1 F700 X88.9190 Y358.5854 Z-3.5000 S1000
G1 F700 X88.6263 Y358.7663 Z-3.5000 S1000
G1 F700 X88.5325 Y358.8600 Z-3.5000 S1000
G1 F700 X88.3914 Y359.0557 Z-3.5000 S1000
G1 F700 X88.3125 Y359.3906 Z-3.5000 S1000
G1 F700 X88.3125 Y369.2344 Z-3.5000 S1000
G1 F700 X88.3513 Y369.4725 Z-3.5000 S1000
G1 F700 X88.5325 Y369.7650 Z-3.5000 S1000
G1 F700 X88.6263 Y369.8587 Z-3.5000 S1000
G1 F700 X88.8214 Y369.9992 Z-3.5000 S1000
G1 F700 X89.1563 Y370.0781 Z-3.5000 S1000
G1 F700 X91.5938 Y370.0781 Z-3.5000 S1000
G1 F700 X91.5938 Y378.2344 Z-3.5000 S1000
G1 F700 X89.1563 Y378.2344 Z-3.5000 S1000
G1 F700 X88.9190 Y378.2729 Z-3.5000 S1000
G1 F700 X88.6263 Y378.4538 Z-3.5000 S1000
G1 F700 X88.5325 Y378.5475 Z-3.5000 S1000
G1 F700 X88.3914 Y378.7432 Z-3.5000 S1000
